;FLAVOR:Marlin
;TIME:9949
;Filament used: 8.0437m
;Layer height: 0.2
;MINX:103.877
;MINY:125.3
;MINZ:0.2
;MAXX:196.39
;MAXY:180.208
;MAXZ:20
;Generated with Cura_SteamEngine 4.6.1
M140 S100
M105
M190 S100
M104 S240
M105
M109 S240
M82 ;absolute extrusion mode
M201 X500.00 Y500.00 Z100.00 E5000.00 ;Setup machine max acceleration
M203 X500.00 Y500.00 Z10.00 E50.00 ;Setup machine max feedrate
M204 P500.00 R1000.00 T500.00 ;Setup Print/Retract/Travel acceleration
M205 X8.00 Y8.00 Z0.40 E5.00 ;Setup Jerk
M220 S100 ;Reset Feedrate
M221 S100 ;Reset Flowrate

G28 ;Home

G92 E0 ;Reset Extruder
G1 Z2.0 F3000 ;Move Z Axis up
G1 X10.1 Y20 Z0.28 F5000.0 ;Move to start position
G1 X10.1 Y200.0 Z0.28 F1500.0 E15 ;Draw the first line
G1 X10.4 Y200.0 Z0.28 F5000.0 ;Move to side a little
G1 X10.4 Y20 Z0.28 F1500.0 E30 ;Draw the second line
G92 E0 ;Reset Extruder
G1 Z2.0 F3000 ;Move Z Axis up

G92 E0
G92 E0
G1 F2400 E-0.6
;LAYER_COUNT:100
;LAYER:0
M107
M204 S500
M205 X8 Y8
G0 F3000 X183.237 Y126.111 Z0.2
;TYPE:SKIRT
G1 F1200 E0
G1 F1500 X184.139 Y126.164 E0.02765
G1 X185.032 Y126.296 E0.05527
G1 X185.91 Y126.507 E0.0829
G1 X186.766 Y126.795 E0.11054
G1 X187.593 Y127.157 E0.13816
G1 X188.385 Y127.592 E0.16581
G1 X189.136 Y128.094 E0.19345
G1 X189.839 Y128.661 E0.22109
G1 X190.489 Y129.288 E0.24872
G1 X191.081 Y129.97 E0.27636
G1 X191.611 Y130.701 E0.30399
G1 X192.073 Y131.477 E0.33162
G1 X192.466 Y132.29 E0.35925
G1 X192.784 Y133.135 E0.38688
G1 X193.027 Y134.005 E0.41452
G1 X193.228 Y135.179 E0.45097
G1 X193.37 Y136.448 E0.49004
G1 X193.691 Y138.991 E0.56847
G1 X194.089 Y141.548 E0.64765
G1 X194.543 Y144.004 E0.72408
G1 X195.316 Y147.529 E0.83451
G1 X195.515 Y148.828 E0.87472
G1 X195.552 Y149.253 E0.88777
G1 X195.59 Y150.156 E0.91543
G1 X195.548 Y151.058 E0.94306
G1 X195.465 Y151.732 E0.96384
G1 X195.355 Y152.428 E0.9854
G1 X194.983 Y155.013 E1.06531
G1 X194.698 Y157.476 E1.14118
G1 X194.623 Y158.35 E1.16802
G1 X194.485 Y159.758 E1.21131
G1 X194.358 Y160.652 E1.23894
G1 X194.151 Y161.531 E1.26658
G1 X193.868 Y162.389 E1.29422
G1 X193.51 Y163.218 E1.32185
G1 X193.08 Y164.012 E1.34948
G1 X192.755 Y164.519 E1.36791
G1 X192.086 Y165.494 E1.40409
G1 X191.666 Y166.086 E1.4263
G1 X190.218 Y168.254 E1.50608
G1 X189.918 Y168.718 E1.52299
G1 X189.394 Y169.454 E1.55063
G1 X188.808 Y170.14 E1.57824
G1 X188.162 Y170.772 E1.60589
G1 X187.464 Y171.344 E1.63351
G1 X186.472 Y171.999 E1.66988
G1 X185.874 Y172.341 E1.69096
G1 X184.915 Y172.863 E1.72437
G1 X184.37 Y173.167 E1.74347
G1 X183.562 Y173.572 E1.77112
G1 X182.722 Y173.903 E1.79875
G1 X182.136 Y174.085 E1.81753
G1 X178.973 Y174.965 E1.91799
G1 X176.492 Y175.73 E1.99743
G1 X174.125 Y176.533 E2.07391
G1 X171.713 Y177.428 E2.15264
G1 X168.685 Y178.651 E2.25256
G1 X167.833 Y178.952 E2.28021
G1 X166.959 Y179.176 E2.30782
G1 X166.067 Y179.322 E2.33548
G1 X165.044 Y179.391 E2.36685
G1 X163.921 Y179.406 E2.40122
G1 X163.342 Y179.398 E2.41894
G1 X162.207 Y179.319 E2.45375
G1 X161.455 Y179.224 E2.47695
G1 X158.862 Y178.93 E2.5568
G1 X156.312 Y178.714 E2.63511
G1 X153.771 Y178.57 E2.71299
G1 X151.245 Y178.499 E2.79031
G1 X148.71 Y178.499 E2.86788
G1 X146.171 Y178.572 E2.9456
G1 X143.611 Y178.717 E3.02406
G1 X141.114 Y178.929 E3.10074
G1 X137.854 Y179.31 E3.20118
G1 X136.991 Y179.374 E3.22766
G1 X136.036 Y179.404 E3.25689
G1 X135.575 Y179.408 E3.271
G1 X134.995 Y179.4 E3.28875
G1 X134.094 Y179.348 E3.31636
G1 X133.2 Y179.216 E3.34402
G1 X132.322 Y179.005 E3.37165
G1 X131.37 Y178.68 E3.40243
G1 X130.623 Y178.383 E3.42703
G1 X128.156 Y177.433 E3.50792
G1 X125.739 Y176.579 E3.58636
G1 X123.336 Y175.807 E3.66359
G1 X120.896 Y175.097 E3.74135
G1 X117.896 Y174.315 E3.83622
G1 X116.843 Y173.978 E3.87005
G1 X115.776 Y173.572 E3.90498
G1 X114.947 Y173.214 E3.93261
G1 X114.429 Y172.944 E3.95049
G1 X114.062 Y172.739 E3.96335
G1 X113.294 Y172.264 E3.99098
G1 X112.571 Y171.723 E4.01861
G1 X111.898 Y171.12 E4.04626
G1 X111.282 Y170.46 E4.07389
G1 X110.726 Y169.748 E4.10153
G1 X110.235 Y168.99 E4.12916
G1 X109.814 Y168.192 E4.15677
G1 X109.478 Y167.396 E4.18321
G1 X109.118 Y166.423 E4.21496
G1 X108.798 Y165.501 E4.24482
G1 X107.887 Y163.099 E4.32343
G1 X107.615 Y162.433 E4.34544
G1 X107.404 Y161.889 E4.3633
G1 X107.115 Y161.033 E4.39094
G1 X106.92 Y160.241 E4.4159
G1 X106.767 Y159.492 E4.43929
G1 X106.227 Y157.021 E4.51669
G1 X105.608 Y154.522 E4.59547
G1 X105.335 Y153.544 E4.62654
G1 X105.078 Y152.578 E4.65712
G1 X104.831 Y151.353 E4.69536
G1 X104.767 Y150.89 E4.70966
G1 X104.683 Y149.99 E4.73732
G1 X104.679 Y149.087 E4.76495
G1 X104.755 Y148.187 E4.79259
G1 X104.888 Y147.399 E4.81705
G1 X105.152 Y146.142 E4.85635
G1 X105.651 Y143.586 E4.93604
G1 X106.068 Y141.066 E5.0142
G1 X106.409 Y138.579 E5.09101
G1 X106.645 Y136.453 E5.15646
G1 X106.759 Y135.302 E5.19185
G1 X106.888 Y134.408 E5.21949
G1 X107.096 Y133.529 E5.24713
G1 X107.38 Y132.672 E5.27476
G1 X107.739 Y131.843 E5.3024
G1 X108.171 Y131.05 E5.33003
G1 X108.67 Y130.298 E5.35765
G1 X109.234 Y129.592 E5.3853
G1 X109.859 Y128.94 E5.41294
G1 X110.538 Y128.345 E5.44056
G1 X111.268 Y127.813 E5.4682
G1 X112.042 Y127.347 E5.49585
G1 X112.854 Y126.952 E5.52348
G1 X113.697 Y126.63 E5.55109
G1 X114.566 Y126.384 E5.57873
G1 X115.454 Y126.215 E5.60639
G1 X116.56 Y126.117 E5.64036
G1 X116.881 Y126.106 E5.65019
G1 X117.23 Y126.1 E5.66087
G1 X182.393 Y126.1 E7.65481
G1 X182.539 Y126.101 E7.65928
G1 X183.237 Y126.111 E7.68064
G0 F3000 X183.243 Y125.711
G1 F1500 X184.162 Y125.764 E7.70881
G1 X185.073 Y125.897 E7.73698
G1 X185.969 Y126.108 E7.76515
G1 X186.843 Y126.396 E7.79331
G1 X187.69 Y126.759 E7.8215
G1 X188.501 Y127.194 E7.84966
G1 X189.271 Y127.698 E7.87782
G1 X189.995 Y128.267 E7.906
G1 X190.667 Y128.897 E7.93419
G1 X191.282 Y129.582 E7.96236
G1 X191.835 Y130.318 E7.99053
G1 X192.322 Y131.099 E8.01869
G1 X192.739 Y131.92 E8.04687
G1 X193.084 Y132.774 E8.07505
G1 X193.353 Y133.654 E8.10321
G1 X193.545 Y134.555 E8.1314
G1 X193.626 Y135.134 E8.14929
G1 X193.77 Y136.428 E8.18913
G1 X194.089 Y138.945 E8.26676
G1 X194.479 Y141.45 E8.34434
G1 X194.938 Y143.935 E8.42166
G1 X195.707 Y147.443 E8.53155
G1 X195.913 Y148.794 E8.57337
G1 X195.95 Y149.219 E8.58642
G1 X195.99 Y150.138 E8.61457
G1 X195.95 Y151.058 E8.64275
G1 X195.86 Y151.794 E8.66544
G1 X195.753 Y152.471 E8.68641
G1 X195.383 Y155.044 E8.76595
G1 X195.092 Y157.556 E8.84333
G1 X195.021 Y158.389 E8.86891
G1 X194.883 Y159.797 E8.9122
G1 X194.754 Y160.708 E8.94036
G1 X194.546 Y161.605 E8.96853
G1 X194.261 Y162.481 E8.99672
G1 X193.901 Y163.328 E9.02488
G1 X193.468 Y164.141 E9.05307
G1 X193.085 Y164.744 E9.07493
G1 X192.413 Y165.725 E9.11131
G1 X191.993 Y166.318 E9.13355
G1 X190.565 Y168.456 E9.21222
G1 X190.254 Y168.936 E9.22972
G1 X189.721 Y169.686 E9.25788
G1 X189.124 Y170.387 E9.28605
G1 X188.469 Y171.034 E9.31422
G1 X187.76 Y171.622 E9.34241
G1 X186.673 Y172.345 E9.38236
G1 X186.066 Y172.693 E9.40376
G1 X185.013 Y173.266 E9.44045
G1 X184.565 Y173.516 E9.45615
G1 X183.742 Y173.929 E9.48432
G1 X182.886 Y174.27 E9.51252
G1 X182.243 Y174.471 E9.53313
G1 X179.06 Y175.357 E9.63423
G1 X176.633 Y176.105 E9.71194
G1 X174.256 Y176.911 E9.78875
G1 X171.854 Y177.803 E9.86715
G1 X168.835 Y179.022 E9.96678
G1 X167.967 Y179.329 E9.99495
G1 X167.076 Y179.56 E10.02311
G1 X166.168 Y179.713 E10.05129
G1 X165.051 Y179.791 E10.08555
G1 X163.916 Y179.806 E10.12029
G1 X163.337 Y179.798 E10.138
G1 X162.157 Y179.716 E10.1742
G1 X161.359 Y179.615 E10.19881
G1 X158.816 Y179.327 E10.27712
G1 X156.294 Y179.113 E10.35457
G1 X153.771 Y178.97 E10.4319
G1 X151.234 Y178.899 E10.50956
G1 X148.722 Y178.899 E10.58642
G1 X146.17 Y178.972 E10.66455
G1 X143.667 Y179.114 E10.74126
G1 X141.16 Y179.327 E10.81825
G1 X137.9 Y179.708 E10.91868
G1 X137.004 Y179.774 E10.94617
G1 X136.049 Y179.804 E10.97541
G1 X135.57 Y179.808 E10.99007
G1 X134.99 Y179.8 E11.00782
G1 X134.071 Y179.747 E11.03598
G1 X133.16 Y179.615 E11.06415
G1 X132.263 Y179.404 E11.09235
G1 X131.222 Y179.052 E11.12597
G1 X130.404 Y178.727 E11.15291
G1 X128.027 Y177.811 E11.23085
G1 X125.631 Y176.965 E11.30861
G1 X123.207 Y176.186 E11.38651
G1 X120.789 Y175.483 E11.46357
G1 X117.795 Y174.702 E11.55825
G1 X116.7 Y174.352 E11.59342
G1 X115.633 Y173.946 E11.62836
G1 X114.788 Y173.582 E11.65651
G1 X114.234 Y173.293 E11.67563
G1 X113.867 Y173.088 E11.68849
G1 X113.083 Y172.605 E11.71667
G1 X112.345 Y172.055 E11.74483
G1 X111.657 Y171.443 E11.77301
G1 X111.024 Y170.774 E11.80119
G1 X110.452 Y170.053 E11.82935
G1 X109.945 Y169.285 E11.85751
G1 X109.506 Y168.475 E11.88571
G1 X109.103 Y167.536 E11.91697
G1 X108.741 Y166.554 E11.949
G1 X108.434 Y165.668 E11.97769
G1 X107.526 Y163.277 E12.05595
G1 X107.242 Y162.577 E12.07907
G1 X107.031 Y162.033 E12.09692
G1 X106.736 Y161.161 E12.12509
G1 X106.528 Y160.321 E12.15157
G1 X106.375 Y159.572 E12.17496
G1 X105.834 Y157.097 E12.25248
G1 X105.23 Y154.662 E12.32925
G1 X104.948 Y153.647 E12.36148
G1 X104.691 Y152.681 E12.39207
G1 X104.435 Y151.407 E12.43183
G1 X104.371 Y150.944 E12.44614
G1 X104.285 Y150.028 E12.47429
G1 X104.278 Y149.107 E12.50247
G1 X104.351 Y148.189 E12.53065
G1 X104.497 Y147.317 E12.5577
G1 X104.749 Y146.118 E12.59519
G1 X105.256 Y143.516 E12.67631
G1 X105.669 Y141.023 E12.75364
G1 X106.018 Y138.481 E12.83215
G1 X106.243 Y136.452 E12.89462
G1 X106.361 Y135.262 E12.93121
G1 X106.492 Y134.351 E12.95937
G1 X106.701 Y133.454 E12.98755
G1 X106.988 Y132.579 E13.01573
G1 X107.349 Y131.733 E13.04388
G1 X107.782 Y130.92 E13.07206
G1 X108.284 Y130.149 E13.10021
G1 X108.852 Y129.424 E13.1284
G1 X109.48 Y128.75 E13.15658
G1 X110.164 Y128.134 E13.18475
G1 X110.899 Y127.58 E13.21291
G1 X111.679 Y127.091 E13.24108
G1 X112.499 Y126.672 E13.26926
G1 X113.352 Y126.326 E13.29743
G1 X114.232 Y126.055 E13.3256
G1 X115.132 Y125.861 E13.35378
G1 X116.045 Y125.746 E13.38193
G1 X116.546 Y125.717 E13.39729
G1 X116.867 Y125.706 E13.40712
G1 X117.23 Y125.7 E13.41823
G1 X182.393 Y125.7 E15.41217
G1 X182.545 Y125.701 E15.41682
G1 X183.243 Y125.711 E15.43818
G0 F3000 X183.249 Y125.311
G1 F1500 X184.185 Y125.365 E15.46687
G1 X185.113 Y125.497 E15.49555
G1 X186.027 Y125.709 E15.52426
G1 X186.919 Y125.998 E15.55295
G1 X187.784 Y126.361 E15.58166
G1 X188.614 Y126.797 E15.61035
G1 X189.405 Y127.302 E15.63906
G1 X190.149 Y127.873 E15.66776
G1 X190.842 Y128.505 E15.69646
G1 X191.479 Y129.193 E15.72515
G1 X192.054 Y129.934 E15.75385
G1 X192.565 Y130.72 E15.78254
G1 X193.007 Y131.548 E15.81126
G1 X193.376 Y132.41 E15.83995
G1 X193.671 Y133.3 E15.86864
G1 X193.889 Y134.212 E15.89733
G1 X194.023 Y135.09 E15.92451
G1 X194.16 Y136.315 E15.96223
G1 X194.488 Y138.91 E16.04227
G1 X194.873 Y141.382 E16.11882
G1 X195.328 Y143.844 E16.19543
G1 X196.098 Y147.358 E16.30551
G1 X196.259 Y148.281 E16.33418
G1 X196.312 Y148.759 E16.34889
G1 X196.349 Y149.184 E16.36195
G1 X196.39 Y150.121 E16.39065
G1 X196.351 Y151.058 E16.41934
G1 X196.255 Y151.857 E16.44397
G1 X196.149 Y152.524 E16.46463
G1 X195.777 Y155.111 E16.54461
G1 X195.493 Y157.571 E16.62038
G1 X195.42 Y158.428 E16.6467
G1 X195.282 Y159.836 E16.68999
G1 X195.15 Y160.765 E16.7187
G1 X194.941 Y161.679 E16.74739
G1 X194.654 Y162.572 E16.77609
G1 X194.292 Y163.437 E16.80479
G1 X193.857 Y164.268 E16.83349
G1 X193.415 Y164.97 E16.85887
G1 X192.739 Y165.957 E16.89548
G1 X192.324 Y166.542 E16.91743
G1 X190.89 Y168.69 E16.99645
G1 X190.59 Y169.153 E17.01334
G1 X190.047 Y169.918 E17.04204
G1 X189.441 Y170.634 E17.07074
G1 X188.776 Y171.295 E17.09944
G1 X188.058 Y171.898 E17.12813
G1 X187.29 Y172.437 E17.15684
G1 X186.874 Y172.691 E17.17175
G1 X186.257 Y173.044 E17.1935
G1 X185.305 Y173.562 E17.22667
G1 X184.76 Y173.866 E17.24576
G1 X183.922 Y174.287 E17.27446
G1 X183.051 Y174.636 E17.30317
G1 X182.351 Y174.856 E17.32562
G1 X179.17 Y175.741 E17.42666
G1 X176.764 Y176.483 E17.5037
G1 X174.387 Y177.289 E17.5805
G1 X172.007 Y178.173 E17.65819
G1 X168.985 Y179.393 E17.75791
G1 X168.101 Y179.707 E17.78662
G1 X167.193 Y179.944 E17.81533
G1 X166.269 Y180.103 E17.84402
G1 X165.058 Y180.191 E17.88117
G1 X163.91 Y180.206 E17.91631
G1 X163.331 Y180.198 E17.93402
G1 X162.107 Y180.113 E17.97157
G1 X161.344 Y180.017 E17.9951
G1 X158.773 Y179.725 E18.07428
G1 X156.236 Y179.51 E18.15219
G1 X153.773 Y179.37 E18.22767
G1 X151.223 Y179.299 E18.30573
G1 X148.698 Y179.299 E18.38299
G1 X146.203 Y179.371 E18.45937
G1 X143.686 Y179.513 E18.53651
G1 X141.21 Y179.724 E18.61255
G1 X137.946 Y180.105 E18.71311
G1 X137.016 Y180.174 E18.74164
G1 X136.061 Y180.204 E18.77088
G1 X135.564 Y180.208 E18.78609
G1 X134.984 Y180.2 E18.80384
G1 X134.048 Y180.147 E18.83252
G1 X133.119 Y180.015 E18.86123
G1 X132.206 Y179.803 E18.88992
G1 X131.074 Y179.424 E18.92644
G1 X130.289 Y179.112 E18.95229
G1 X127.856 Y178.175 E19.03207
G1 X125.513 Y177.347 E19.10811
G1 X123.078 Y176.565 E19.18637
G1 X120.691 Y175.87 E19.26244
G1 X117.694 Y175.089 E19.35721
G1 X116.558 Y174.726 E19.3937
G1 X115.491 Y174.32 E19.42863
G1 X114.63 Y173.949 E19.45732
G1 X114.039 Y173.642 E19.4777
G1 X113.672 Y173.437 E19.49056
G1 X112.873 Y172.946 E19.51926
G1 X112.119 Y172.387 E19.54798
G1 X111.416 Y171.767 E19.57666
G1 X110.768 Y171.089 E19.60536
G1 X110.18 Y170.359 E19.63404
G1 X109.656 Y169.58 E19.66277
G1 X109.201 Y168.761 E19.69144
G1 X108.729 Y167.675 E19.72767
G1 X108.363 Y166.685 E19.75997
G1 X108.056 Y165.801 E19.78861
G1 X107.154 Y163.422 E19.86646
G1 X106.869 Y162.722 E19.88959
G1 X106.658 Y162.178 E19.90744
G1 X106.357 Y161.29 E19.93613
G1 X106.137 Y160.402 E19.96412
G1 X106.002 Y159.74 E19.9848
G1 X105.443 Y157.181 E20.06495
G1 X104.841 Y154.752 E20.14152
G1 X104.562 Y153.75 E20.17335
G1 X104.305 Y152.784 E20.20394
G1 X104.039 Y151.462 E20.2452
G1 X103.975 Y150.999 E20.2595
G1 X103.886 Y150.066 E20.28818
G1 X103.877 Y149.128 E20.31688
G1 X103.948 Y148.193 E20.34558
G1 X104.105 Y147.235 E20.37528
G1 X104.371 Y145.968 E20.4149
G1 X104.864 Y143.44 E20.49371
G1 X105.272 Y140.976 E20.57013
G1 X105.617 Y138.461 E20.64781
G1 X105.849 Y136.365 E20.71234
G1 X105.963 Y135.223 E20.74746
G1 X106.095 Y134.294 E20.77617
G1 X106.307 Y133.38 E20.80488
G1 X106.595 Y132.488 E20.83356
G1 X106.958 Y131.623 E20.86227
G1 X107.393 Y130.793 E20.89094
G1 X107.898 Y130.002 E20.91966
G1 X108.468 Y129.257 E20.94836
G1 X109.1 Y128.564 E20.97706
G1 X109.788 Y127.927 E21.00575
G1 X110.528 Y127.351 E21.03444
G1 X111.315 Y126.84 E21.06316
G1 X112.142 Y126.398 E21.09185
G1 X113.003 Y126.028 E21.12052
G1 X113.894 Y125.732 E21.14925
G1 X114.806 Y125.514 E21.17795
G1 X115.733 Y125.374 E21.20663
G1 X116.532 Y125.317 E21.23114
G1 X116.853 Y125.306 E21.24097
G1 X117.23 Y125.3 E21.25251
G1 X182.393 Y125.3 E23.24645
G1 X182.551 Y125.301 E23.25129
G1 X183.249 Y125.311 E23.27265
G1 F2400 E22.67265
G0 F3000 X186.077 Y150.286
G0 X185.052 Y159.181
G0 X182.068 Y163.596
G0 X179.677 Y164.895
G0 X178.947 Y165.075
G0 X163.885 Y166.881
G1 F1200 E23.27265
G1 F1500 X164.059 Y166.755 E23.27922
G1 X164.269 Y166.755 E23.28565
G1 X164.443 Y166.881 E23.29222
G1 X164.508 Y167.082 E23.29869
G1 X164.443 Y167.283 E23.30515
G1 X164.269 Y167.409 E23.31172
G1 X164.059 Y167.409 E23.31815
G1 X163.885 Y167.283 E23.32472
G1 X163.82 Y167.082 E23.33119
G1 X163.885 Y166.881 E23.33765
G0 F3000 X163.544 Y166.635
G1 F1500 X163.929 Y166.355 E23.35222
G1 X164.399 Y166.355 E23.3666
G1 X164.784 Y166.635 E23.38117
G1 X164.929 Y167.082 E23.39555
G1 X164.784 Y167.529 E23.40993
G1 X164.399 Y167.809 E23.42449
G1 X163.929 Y167.809 E23.43888
G1 X163.544 Y167.529 E23.45344
G1 X163.399 Y167.082 E23.46782
G1 X163.544 Y166.635 E23.4822
G0 F3000 X163.204 Y166.387
G1 F1500 X163.798 Y165.955 E23.50468
G1 X164.53 Y165.955 E23.52707
G1 X165.124 Y166.387 E23.54955
