;FLAVOR:Marlin
;TIME:6759
;Filament used: 4.52244m
;Layer height: 0.16
;MINX:71.293
;MINY:107.624
;MINZ:0.24
;MAXX:163.235
;MAXY:144.403
;MAXZ:10.95
;Generated with Cura_SteamEngine 4.6.1
M140 S60
M105
M190 S60
M104 S205
M105
M109 S205
M82 ;absolute extrusion mode
; Ender 3 Custom Start G-code
G92 E0 ; Reset Extruder
G28 ; Home all axes
G1 Z2.0 F3000 ; Move Z Axis up little to prevent scratching of Heat Bed
G1 X0.1 Y20 Z0.3 F5000.0 ; Move to start position
G1 X0.1 Y200.0 Z0.3 F1500.0 E15 ; Draw the first line
G1 X0.4 Y200.0 Z0.3 F5000.0 ; Move to side a little
G1 X0.4 Y20 Z0.3 F1500.0 E30 ; Draw the second line
G92 E0 ; Reset Extruder
G1 Z2.0 F3000 ; Move Z Axis up little to prevent scratching of Heat Bed
G1 X5 Y20 Z0.3 F5000.0 ; Move over to prevent blob squish
G92 E0
G92 E0
G1 F2700 E-6
;LAYER_COUNT:51
;LAYER:-6
M107
G0 F9000 X74.396 Y109.476 Z0.24
;TYPE:SUPPORT-INTERFACE
G1 F2700 E0
G1 F1125 X74.655 Y109.314 E0.02439
G1 X74.894 Y109.186 E0.04603
G1 X75.169 Y109.059 E0.07021
G1 X75.43 Y108.957 E0.09258
G1 X75.733 Y108.862 E0.11792
G1 X75.954 Y108.808 E0.13608
G1 X76.31 Y108.748 E0.1649
G1 X76.864 Y108.698 E0.2093
G1 X77.086 Y108.688 E0.22704
G1 X151.621 Y108.689 E6.17675
G1 X156.848 Y108.688 E6.59399
G1 X157.038 Y108.694 E6.60917
G1 X157.383 Y108.716 E6.63676
G1 X157.678 Y108.753 E6.66049
G1 X157.965 Y108.808 E6.68382
G1 X158.255 Y108.882 E6.70771
G1 X158.511 Y108.966 E6.72922
G1 X158.799 Y109.081 E6.75397
G1 X159.045 Y109.198 E6.77572
G1 X159.314 Y109.347 E6.80026
G1 X159.558 Y109.503 E6.82338
G1 X159.785 Y109.67 E6.84588
G1 X160.005 Y109.853 E6.86872
G1 X160.225 Y110.061 E6.89289
G1 X160.416 Y110.267 E6.91531
G1 X160.606 Y110.5 E6.93931
G1 X160.766 Y110.723 E6.96122
G1 X160.929 Y110.984 E6.98578
G1 X161.063 Y111.232 E7.00828
G1 X161.183 Y111.493 E7.03121
G1 X161.288 Y111.761 E7.05419
G1 X161.383 Y112.063 E7.07946
G1 X161.437 Y112.284 E7.09762
G1 X161.497 Y112.639 E7.12636
G1 X161.547 Y113.195 E7.17092
G1 X161.557 Y113.417 E7.18866
G1 X161.557 Y117.986 E7.55338
G1 X161.551 Y118.191 E7.56975
G1 X161.573 Y118.856 E7.62286
G1 X161.622 Y119.234 E7.65329
G1 X161.694 Y119.666 E7.68825
G1 X161.742 Y120.205 E7.73144
G1 X161.752 Y120.427 E7.74918
G1 X161.752 Y124.53 E8.0767
G1 X161.794 Y125.197 E8.13005
G1 X161.907 Y125.803 E8.17926
G1 X161.979 Y126.091 E8.20295
G1 X162.042 Y126.468 E8.23347
G1 X162.09 Y127.007 E8.27666
G1 X162.1 Y127.229 E8.2944
G1 X162.1 Y131.511 E8.63621
G1 X162.142 Y132.179 E8.68964
G1 X162.256 Y132.786 E8.73894
G1 X162.295 Y132.943 E8.75185
G1 X162.353 Y133.288 E8.77978
G1 X162.403 Y133.846 E8.8245
G1 X162.413 Y134.068 E8.84224
G1 X162.409 Y138.789 E9.21909
G1 X162.385 Y139.166 E9.24924
G1 X162.348 Y139.464 E9.27321
G1 X162.293 Y139.748 E9.2963
G1 X162.217 Y140.039 E9.32031
G1 X162.133 Y140.297 E9.34197
G1 X162.022 Y140.576 E9.36594
G1 X161.9 Y140.834 E9.38872
G1 X161.757 Y141.092 E9.41227
G1 X161.605 Y141.331 E9.43487
G1 X161.432 Y141.566 E9.45817
G1 X161.25 Y141.784 E9.48084
G1 X161.037 Y142.009 E9.50557
G1 X160.832 Y142.199 E9.52788
G1 X160.602 Y142.387 E9.55159
G1 X160.374 Y142.551 E9.57401
G1 X160.115 Y142.713 E9.5984
G1 X159.876 Y142.841 E9.62004
G1 X159.601 Y142.968 E9.64422
G1 X159.34 Y143.07 E9.66659
G1 X159.037 Y143.165 E9.69194
G1 X158.816 Y143.219 E9.7101
G1 X158.46 Y143.279 E9.73891
G1 X157.906 Y143.329 E9.78332
G1 X157.684 Y143.339 E9.80106
G1 X83.149 Y143.338 E15.75076
G1 X77.922 Y143.339 E16.168
G1 X77.732 Y143.333 E16.18318
G1 X77.387 Y143.311 E16.21077
G1 X77.092 Y143.274 E16.23451
G1 X76.805 Y143.219 E16.25783
G1 X76.515 Y143.145 E16.28172
G1 X76.257 Y143.06 E16.30341
G1 X75.971 Y142.946 E16.32798
G1 X75.725 Y142.829 E16.34973
G1 X75.456 Y142.68 E16.37427
G1 X75.212 Y142.524 E16.39739
G1 X74.985 Y142.357 E16.41989
G1 X74.764 Y142.173 E16.44284
G1 X74.545 Y141.966 E16.4669
G1 X74.354 Y141.76 E16.48932
G1 X74.162 Y141.525 E16.51355
G1 X74.004 Y141.304 E16.53523
G1 X73.841 Y141.043 E16.55979
G1 X73.707 Y140.795 E16.5823
G1 X73.587 Y140.534 E16.60523
G1 X73.482 Y140.266 E16.6282
G1 X73.387 Y139.964 E16.65347
G1 X73.333 Y139.743 E16.67163
G1 X73.273 Y139.388 E16.70037
G1 X73.223 Y138.832 E16.74494
G1 X73.213 Y138.61 E16.76267
G1 X73.213 Y134.328 E17.10448
G1 X73.171 Y133.66 E17.15791
G1 X73.057 Y133.053 E17.20721
G1 X73.021 Y132.908 E17.21914
G1 X72.958 Y132.532 E17.24957
G1 X72.91 Y131.993 E17.29276
G1 X72.9 Y131.771 E17.3105
G1 X72.9 Y127.668 E17.63802
G1 X72.858 Y127.001 E17.69137
G1 X72.745 Y126.395 E17.74058
G1 X72.672 Y126.101 E17.76476
G1 X72.61 Y125.73 E17.79479
G1 X72.562 Y125.191 E17.83798
G1 X72.552 Y124.969 E17.85572
G1 X72.552 Y120.401 E18.22036
G1 X72.558 Y120.195 E18.23681
G1 X72.536 Y119.53 E18.28992
G1 X72.487 Y119.152 E18.32035
G1 X72.415 Y118.72 E18.35531
G1 X72.367 Y118.181 E18.3985
G1 X72.357 Y117.959 E18.41624
G1 X72.361 Y113.238 E18.79309
G1 X72.385 Y112.861 E18.82325
G1 X72.422 Y112.563 E18.84722
G1 X72.477 Y112.279 E18.87031
G1 X72.553 Y111.988 E18.89432
G1 X72.637 Y111.73 E18.91597
G1 X72.748 Y111.451 E18.93994
G1 X72.87 Y111.193 E18.96272
G1 X73.016 Y110.93 E18.98674
G1 X73.165 Y110.696 E19.00888
G1 X73.347 Y110.449 E19.03337
G1 X73.516 Y110.248 E19.05433
G1 X73.736 Y110.015 E19.07991
G1 X73.938 Y109.828 E19.10189
G1 X74.168 Y109.64 E19.1256
G1 X74.396 Y109.476 E19.14802
G0 F9000 X75.2 Y109.046
G1 F1125 X75.2 Y142.515 E21.81966
G0 F9000 X76.8 Y143.217
G1 F1125 X76.8 Y108.703 E24.57472
G0 F9000 X78.4 Y108.689
G1 F1125 X78.4 Y143.339 E27.34063
G0 F9000 X80 Y143.339
G1 F1125 X80 Y108.689 E30.10654
G0 F9000 X81.6 Y108.689
G1 F1125 X81.6 Y143.339 E32.87245
G0 F9000 X83.2 Y143.338
G1 F1125 X83.2 Y108.689 E35.63829
G0 F9000 X84.8 Y108.689
G1 F1125 X84.8 Y143.338 E38.40412
G0 F9000 X86.4 Y143.338
G1 F1125 X86.4 Y108.689 E41.16995
G0 F9000 X88 Y108.689
G1 F1125 X88 Y143.338 E43.93579
G0 F9000 X89.6 Y143.338
G1 F1125 X89.6 Y108.689 E46.70162
G0 F9000 X91.2 Y108.689
G1 F1125 X91.2 Y143.338 E49.46745
G0 F9000 X92.8 Y143.338
G1 F1125 X92.8 Y108.689 E52.23328
G0 F9000 X94.4 Y108.689
G1 F1125 X94.4 Y143.338 E54.99912
G0 F9000 X96 Y143.338
G1 F1125 X96 Y108.689 E57.76495
G0 F9000 X97.6 Y108.689
G1 F1125 X97.6 Y143.338 E60.53078
G0 F9000 X99.2 Y143.338
G1 F1125 X99.2 Y108.689 E63.29662
G0 F9000 X100.8 Y108.689
G1 F1125 X100.8 Y143.338 E66.06245
G0 F9000 X102.4 Y143.338
G1 F1125 X102.4 Y108.689 E68.82828
G0 F9000 X104 Y108.689
G1 F1125 X104 Y143.338 E71.59412
G0 F9000 X105.6 Y143.338
G1 F1125 X105.6 Y108.689 E74.35995
G0 F9000 X107.2 Y108.689
G1 F1125 X107.2 Y143.338 E77.12578
G0 F9000 X108.8 Y143.338
G1 F1125 X108.8 Y108.689 E79.89161
G0 F9000 X110.4 Y108.689
G1 F1125 X110.4 Y143.338 E82.65745
G0 F9000 X112 Y143.338
G1 F1125 X112 Y108.689 E85.42328
G0 F9000 X113.6 Y108.689
G1 F1125 X113.6 Y143.338 E88.18911
G0 F9000 X115.2 Y143.338
G1 F1125 X115.2 Y108.689 E90.95495
G0 F9000 X116.8 Y108.689
G1 F1125 X116.8 Y143.338 E93.72078
G0 F9000 X118.4 Y143.338
G1 F1125 X118.4 Y108.689 E96.48661
G0 F9000 X120 Y108.689
G1 F1125 X120 Y143.338 E99.25245
G0 F9000 X121.6 Y143.338
G1 F1125 X121.6 Y108.689 E102.01828
G0 F9000 X123.2 Y108.689
G1 F1125 X123.2 Y143.338 E104.78411
G0 F9000 X124.8 Y143.338
G1 F1125 X124.8 Y108.689 E107.54994
G0 F9000 X126.4 Y108.689
G1 F1125 X126.4 Y143.338 E110.31578
G0 F9000 X128 Y143.338
G1 F1125 X128 Y108.689 E113.08161
G0 F9000 X129.6 Y108.689
G1 F1125 X129.6 Y143.338 E115.84744
G0 F9000 X131.2 Y143.338
G1 F1125 X131.2 Y108.689 E118.61328
G0 F9000 X132.8 Y108.689
G1 F1125 X132.8 Y143.338 E121.37911
G0 F9000 X134.4 Y143.338
G1 F1125 X134.4 Y108.689 E124.14494
G0 F9000 X136 Y108.689
G1 F1125 X136 Y143.338 E126.91078
G0 F9000 X137.6 Y143.338
G1 F1125 X137.6 Y108.689 E129.67661
G0 F9000 X139.2 Y108.689
G1 F1125 X139.2 Y143.338 E132.44244
G0 F9000 X140.8 Y143.338
G1 F1125 X140.8 Y108.689 E135.20827
G0 F9000 X142.4 Y108.689
G1 F1125 X142.4 Y143.338 E137.97411
G0 F9000 X144 Y143.338
G1 F1125 X144 Y108.689 E140.73994
G0 F9000 X145.6 Y108.689
G1 F1125 X145.6 Y143.338 E143.50577
G0 F9000 X147.2 Y143.338
G1 F1125 X147.2 Y108.689 E146.27161
G0 F9000 X148.8 Y108.689
G1 F1125 X148.8 Y143.338 E149.03744
G0 F9000 X150.4 Y143.338
G1 F1125 X150.4 Y108.689 E151.80327
G0 F9000 X152 Y108.688
G1 F1125 X152 Y143.338 E154.56919
G0 F9000 X153.6 Y143.338
G1 F1125 X153.6 Y108.688 E157.3351
G0 F9000 X155.2 Y108.688
G1 F1125 X155.2 Y143.338 E160.10101
G0 F9000 X156.8 Y143.338
G1 F1125 X156.8 Y108.688 E162.86692
G0 F9000 X158.4 Y108.93
G1 F1125 X158.4 Y143.285 E165.60929
G0 F9000 X160 Y142.775
G1 F1125 X160 Y109.849 E168.23758
G1 F2700 E162.23758
G0 F9000 X160.972 Y109.302
G0 X161.651 Y110.13
G0 X162.164 Y111.079
G0 X162.48 Y112.07
G0 X162.593 Y113.134
G0 X162.635 Y118.77
G0 X161.6 Y119.065
G1 F2700 E168.23758
G1 F1125 X161.6 Y141.338 E170.01551
G1 F2700 E164.01551
G0 F9000 X162.262 Y142.233
G0 X161.528 Y143.005
G0 X160.647 Y143.635
G0 X159.689 Y144.076
G0 X158.594 Y144.335
G0 X157.716 Y144.403
G0 X77.285 Y144.371
G0 X76.228 Y144.17
G0 X75.234 Y143.774
G0 X74.333 Y143.199
G0 X73.547 Y142.455
G0 X73.37 Y142.207
G0 X72.755 Y141.271
G0 X73.6 Y140.562
G1 F2700 E170.01551
G1 F1125 X73.6 Y110.159 E172.44241
G1 F2700 E166.44241
G0 F300 X73.6 Y110.159 Z0.48
G0 F9000 X72.508 Y109.793
G0 X71.929 Y110.695
G0 X71.53 Y111.692
G0 X71.325 Y112.759
G0 X71.304 Y118.243
G0 X71.461 Y123.921
G0 X72.217 Y139.522
G0 X73.351 Y139.819
;TIME_ELAPSED:129.040896
;LAYER:-5
M140 S60
;TYPE:SUPPORT
G1 F2700 E172.44241
G1 F1125 X76.73 Y143.199 E172.82392
G1 X76.515 Y143.144 E172.84163
G1 X76.257 Y143.059 E172.86332
G1 X75.97 Y142.945 E172.88797
G1 X75.725 Y142.828 E172.90964
G1 X75.456 Y142.679 E172.93419
G1 X75.212 Y142.523 E172.9573
G1 X74.985 Y142.356 E172.9798
G1 X74.763 Y142.172 E173.00282
G1 X74.545 Y141.965 E173.02681
G1 X74.353 Y141.759 E173.04929
G1 X74.162 Y141.523 E173.07353
G1 X74.003 Y141.303 E173.09519
G1 X73.841 Y141.041 E173.11978
G1 X73.706 Y140.794 E173.14225
G1 X73.587 Y140.533 E173.16515
G1 X73.481 Y140.265 E173.18816
G1 X73.386 Y139.963 E173.21343
G1 F2700 E167.21343
G0 F9000 X72.476 Y140.617
G0 X72.92 Y141.577
G0 X73.547 Y142.455
G0 X74.333 Y143.199
G0 X75.143 Y143.716
G0 X76.228 Y144.17
G0 X76.73 Y143.199
G1 F2700 E173.21343
G1 F1125 X76.805 Y143.218 E173.2196
G1 X77.092 Y143.273 E173.24293
G1 X77.387 Y143.31 E173.26666
G1 X77.732 Y143.331 E173.29425
G1 X77.922 Y143.338 E173.30943
G1 X78.283 Y143.337 E173.33825
G1 X73.213 Y138.266 E173.91065
G1 X73.213 Y136.852 E174.02352
G1 X79.698 Y143.337 E174.7556
G1 X81.112 Y143.337 E174.86847
G1 X73.213 Y135.438 E175.76018
G1 X73.213 Y134.326 E175.84895
G1 X73.191 Y134.003 E175.87479
G1 X82.526 Y143.337 E176.92855
G1 X83.148 Y143.337 E176.9782
G1 X83.94 Y143.337 E177.04142
G1 X72.94 Y132.337 E178.2832
G1 X72.91 Y131.992 E178.31084
G1 X72.899 Y131.77 E178.32858
G1 X72.899 Y130.882 E178.39947
G1 X85.354 Y143.337 E179.80549
G1 X86.769 Y143.337 E179.91844
G1 X72.899 Y129.468 E181.48415
G1 X72.899 Y128.054 E181.59703
G1 X88.183 Y143.337 E183.32236
G1 X89.597 Y143.337 E183.43523
G1 X72.765 Y126.505 E185.33537
G1 X72.745 Y126.394 E185.34438
G1 X72.671 Y126.1 E185.36858
G1 X72.609 Y125.729 E185.3986
G1 X72.561 Y125.19 E185.4418
G1 X72.551 Y124.968 E185.45954
G1 X72.551 Y124.877 E185.4668
G1 X91.011 Y143.337 E187.55072
G1 X92.425 Y143.337 E187.6636
G1 X72.551 Y123.463 E189.90714
G1 X72.551 Y122.049 E190.02002
G1 X93.84 Y143.337 E192.42325
G1 X95.254 Y143.337 E192.53612
G1 X72.551 Y120.635 E195.09897
G1 X72.551 Y120.4 E195.11773
G1 X72.557 Y120.194 E195.13418
G1 X72.536 Y119.529 E195.18729
G1 X72.486 Y119.155 E195.21741
G1 X96.668 Y143.337 E197.94728
G1 X98.082 Y143.337 E198.06016
G1 X72.356 Y117.611 E200.96433
G1 X72.358 Y116.198 E201.07712
G1 X99.496 Y143.337 E204.14075
G1 X100.911 Y143.337 E204.2537
G1 X72.359 Y114.786 E207.47684
G1 X72.36 Y113.372 E207.58971
G1 X102.325 Y143.337 E210.97242
G1 X103.739 Y143.337 E211.08529
G1 X72.518 Y112.116 E214.60979
G1 X72.553 Y111.987 E214.62046
G1 X72.637 Y111.729 E214.64212
G1 X72.747 Y111.45 E214.66606
G1 X72.87 Y111.192 E214.68887
G1 X72.918 Y111.102 E214.69701
G1 X105.153 Y143.337 E218.33598
G1 X106.568 Y143.337 E218.44893
G1 X73.498 Y110.267 E222.18216
G1 X73.515 Y110.247 E222.18425
G1 X73.735 Y110.014 E222.20983
G1 X73.937 Y109.827 E222.23181
G1 X74.167 Y109.639 E222.25552
G1 X74.235 Y109.59 E222.26221
G1 X107.982 Y143.337 E226.07186
G1 X109.396 Y143.337 E226.18473
G1 X75.133 Y109.074 E230.05264
G1 X75.168 Y109.057 E230.05574
G1 X75.429 Y108.956 E230.07808
G1 X75.733 Y108.861 E230.10351
G1 X75.953 Y108.807 E230.12159
G1 X76.233 Y108.76 E230.14425
G1 X110.81 Y143.337 E234.0476
G1 X112.224 Y143.337 E234.16047
G1 X77.575 Y108.687 E238.07201
G1 X78.989 Y108.687 E238.18488
G1 X113.639 Y143.337 E242.09647
G1 X115.053 Y143.337 E242.20934
G1 X80.403 Y108.687 E246.12094
G1 X81.817 Y108.687 E246.23381
G1 X116.467 Y143.337 E250.1454
G1 X117.881 Y143.337 E250.25827
G1 X83.232 Y108.687 E254.16981
G1 X84.646 Y108.687 E254.28268
G1 X119.295 Y143.337 E258.19421
G1 X120.71 Y143.338 E258.30716
G1 X86.06 Y108.687 E262.21881
G1 X87.474 Y108.687 E262.33168
G1 X122.125 Y143.338 E266.24339
G1 X123.539 Y143.338 E266.35626
G1 X88.888 Y108.687 E270.26796
G1 X90.303 Y108.687 E270.38091
G1 X124.953 Y143.338 E274.29256
G1 X126.367 Y143.338 E274.40543
G1 X91.717 Y108.687 E278.31708
G1 X93.131 Y108.687 E278.42995
G1 X127.781 Y143.338 E282.3416
G1 X129.196 Y143.338 E282.45455
G1 X94.545 Y108.687 E286.36626
G1 X95.96 Y108.687 E286.47921
G1 X130.61 Y143.338 E290.39086
G1 X132.024 Y143.338 E290.50373
G1 X97.374 Y108.687 E294.41538
G1 X98.788 Y108.687 E294.52825
G1 X133.438 Y143.338 E298.4399
G1 X134.853 Y143.338 E298.55285
G1 X100.202 Y108.687 E302.46455
G1 X101.616 Y108.687 E302.57742
G1 X136.267 Y143.338 E306.48913
G1 X137.681 Y143.338 E306.602
G1 X103.031 Y108.687 E310.51365
G1 X104.445 Y108.687 E310.62652
G1 X139.095 Y143.338 E314.53817
G1 X140.509 Y143.338 E314.65104
G1 X105.859 Y108.687 E318.56269
G1 X107.273 Y108.687 E318.67556
G1 X141.924 Y143.338 E322.58726
G1 X143.338 Y143.338 E322.70013
G1 X108.687 Y108.687 E326.61184
G1 X110.102 Y108.687 E326.72479
G1 X144.752 Y143.338 E330.63644
G1 X146.166 Y143.338 E330.74931
G1 X111.516 Y108.687 E334.66096
G1 X112.93 Y108.687 E334.77383
G1 X147.58 Y143.338 E338.68548
G1 X148.995 Y143.338 E338.79843
G1 X114.344 Y108.687 E342.71013
G1 X115.759 Y108.688 E342.82308
G1 X150.409 Y143.338 E346.73467
G1 X151.823 Y143.338 E346.84755
G1 X117.173 Y108.688 E350.75914
G1 X118.588 Y108.688 E350.87209
G1 X153.237 Y143.338 E354.78362
G1 X154.652 Y143.338 E354.89658
G1 X120.002 Y108.688 E358.80817
G1 X121.416 Y108.688 E358.92104
G1 X156.066 Y143.338 E362.83263
G1 X157.48 Y143.338 E362.9455
G1 X122.83 Y108.688 E366.85709
G1 X124.245 Y108.688 E366.97004
G1 X158.78 Y143.224 E370.86871
G1 X158.814 Y143.218 E370.87147
G1 X159.036 Y143.165 E370.88968
G1 X159.339 Y143.07 E370.91503
G1 X159.6 Y142.967 E370.93743
G1 X159.831 Y142.861 E370.95772
G1 X125.659 Y108.688 E374.81541
G1 X127.073 Y108.688 E374.92828
G1 X160.694 Y142.31 E378.72376
G1 X160.831 Y142.199 E378.73784
G1 X161.035 Y142.008 E378.76015
G1 X161.249 Y141.784 E378.78487
G1 X161.401 Y141.602 E378.8038
G1 X128.487 Y108.688 E382.51942
G1 X129.901 Y108.688 E382.63229
G1 X161.947 Y140.734 E386.24992
G1 X162.021 Y140.576 E386.26385
G1 X162.132 Y140.297 E386.28782
G1 X162.216 Y140.038 E386.30955
G1 X162.292 Y139.748 E386.33348
G1 X162.306 Y139.679 E386.3391
G1 X131.316 Y108.688 E389.83758
G1 X132.73 Y108.688 E389.95045
G1 X162.408 Y138.367 E393.30081
G1 X162.409 Y136.953 E393.41369
G1 X134.144 Y108.688 E396.60448
G1 X135.558 Y108.688 E396.71735
G1 X162.411 Y135.541 E399.74875
G1 X162.411 Y134.127 E399.86163
