;FLAVOR:Marlin
;TIME:2538
;Filament used: 1.29017m
;Layer height: 0.16
;MINX:92.308
;MINY:104.308
;MINZ:0.16
;MAXX:142.692
;MAXY:130.692
;MAXZ:12
;Generated with Cura_SteamEngine 4.6.1
M140 S60
M105
M190 S60
M104 S210
M105
M109 S210
M82 ;absolute extrusion mode
; Ender 3 Custom Start G-code
G92 E0 ; Reset Extruder
G28 ; Home all axes
G1 Z2.0 F3000 ; Move Z Axis up little to prevent scratching of Heat Bed
G1 X0.1 Y20 Z0.3 F5000.0 ; Move to start position
G1 X0.1 Y200.0 Z0.3 F1500.0 E15 ; Draw the first line
G1 X0.4 Y200.0 Z0.3 F5000.0 ; Move to side a little
G1 X0.4 Y20 Z0.3 F1500.0 E30 ; Draw the second line
G92 E0 ; Reset Extruder
G1 Z2.0 F3000 ; Move Z Axis up little to prevent scratching of Heat Bed
G1 X5 Y20 Z0.3 F5000.0 ; Move over to prevent blob squish
G92 E0
G92 E0
G1 F2400 E-0.6
;LAYER_COUNT:75
;LAYER:0
M107
M204 S500
M205 X8 Y8
G0 F3000 X94.96 Y106.35 Z0.16
;TYPE:SKIRT
G1 F1200 E0
G1 F1500 X95.572 Y105.851 E0.02101
G1 X96.232 Y105.417 E0.04203
G1 X96.932 Y105.052 E0.06303
G1 X97.767 Y104.725 E0.0869
G1 X97.859 Y104.695 E0.08947
G1 X98.621 Y104.489 E0.11047
G1 X99.4 Y104.36 E0.13148
G1 X100.253 Y104.311 E0.15422
G1 X101.248 Y104.308 E0.18069
G1 X102.524 Y104.312 E0.21464
G1 X134.693 Y104.309 E1.0706
G1 X135.482 Y104.349 E1.09162
G1 X136.263 Y104.468 E1.11264
G1 X137.075 Y104.681 E1.13498
G1 X137.206 Y104.723 E1.13864
G1 X137.945 Y105.002 E1.15966
G1 X138.652 Y105.354 E1.18067
G1 X139.32 Y105.776 E1.2017
G1 X139.941 Y106.263 E1.2227
G1 X140.51 Y106.811 E1.24371
G1 X141.021 Y107.413 E1.26473
G1 X141.468 Y108.064 E1.28574
G1 X141.889 Y108.844 E1.30932
G1 X141.955 Y108.985 E1.31346
G1 X142.254 Y109.717 E1.3345
G1 X142.476 Y110.474 E1.35549
G1 X142.621 Y111.25 E1.3765
G1 X142.691 Y112.282 E1.40402
G1 X142.692 Y113.045 E1.42432
G1 X142.688 Y114.227 E1.45578
G1 X142.691 Y122.69 E1.68096
G1 X142.651 Y123.479 E1.70198
G1 X142.532 Y124.26 E1.723
G1 X142.324 Y125.058 E1.74494
G1 X142.282 Y125.19 E1.74863
G1 X142.005 Y125.929 E1.76963
G1 X141.654 Y126.637 E1.79066
G1 X141.234 Y127.306 E1.81167
G1 X140.748 Y127.928 E1.83268
G1 X140.202 Y128.498 E1.85368
G1 X139.601 Y129.011 E1.8747
G1 X138.951 Y129.459 E1.89571
G1 X138.058 Y129.934 E1.92262
G1 X137.914 Y129.999 E1.92683
G1 X137.179 Y130.287 E1.94783
G1 X136.418 Y130.5 E1.96886
G1 X135.64 Y130.634 E1.98986
G1 X134.721 Y130.69 E2.01436
G1 X133.744 Y130.692 E2.04036
G1 X132.476 Y130.688 E2.0741
G1 X100.307 Y130.691 E2.93005
G1 X99.518 Y130.651 E2.95107
G1 X98.737 Y130.532 E2.9721
G1 X97.925 Y130.319 E2.99443
G1 X97.794 Y130.277 E2.99809
G1 X97.055 Y129.998 E3.01911
G1 X96.348 Y129.646 E3.04013
G1 X95.68 Y129.224 E3.06115
G1 X95.059 Y128.737 E3.08215
G1 X94.49 Y128.189 E3.10317
G1 X93.979 Y127.587 E3.12418
G1 X93.532 Y126.936 E3.14519
G1 X93.111 Y126.156 E3.16878
G1 X93.045 Y126.015 E3.17292
G1 X92.746 Y125.283 E3.19396
G1 X92.524 Y124.526 E3.21495
G1 X92.379 Y123.75 E3.23595
G1 X92.309 Y122.718 E3.26348
G1 X92.308 Y121.955 E3.28378
G1 X92.312 Y120.773 E3.31523
G1 X92.309 Y112.309 E3.54044
G1 X92.349 Y111.52 E3.56146
G1 X92.468 Y110.739 E3.58248
G1 X92.665 Y109.975 E3.60347
G1 X93.024 Y109.043 E3.63005
G1 X93.1 Y108.878 E3.63488
G1 X93.467 Y108.178 E3.65591
G1 X93.902 Y107.519 E3.67692
G1 X94.401 Y106.908 E3.69791
G1 X94.96 Y106.35 E3.71893
G0 F3000 X95.288 Y106.593
G1 F1500 X95.89 Y106.115 E3.73938
G1 X96.539 Y105.702 E3.75985
G1 X97.227 Y105.358 E3.78032
G1 X97.983 Y105.076 E3.80179
G1 X98.726 Y104.875 E3.82227
G1 X99.485 Y104.754 E3.84272
G1 X100.255 Y104.711 E3.86324
G1 X101.25 Y104.708 E3.88972
G1 X102.523 Y104.712 E3.92359
G1 X134.693 Y104.709 E4.77957
G1 X135.461 Y104.749 E4.80003
G1 X136.221 Y104.868 E4.8205
G1 X136.953 Y105.062 E4.84065
G1 X137.084 Y105.104 E4.84431
G1 X137.803 Y105.377 E4.86478
G1 X138.491 Y105.723 E4.88527
G1 X139.138 Y106.138 E4.90572
G1 X139.739 Y106.618 E4.92619
G1 X140.287 Y107.158 E4.94666
G1 X140.775 Y107.752 E4.96711
G1 X141.2 Y108.393 E4.98758
G1 X141.527 Y109.014 E5.00625
G1 X141.593 Y109.155 E5.01039
G1 X141.883 Y109.867 E5.03085
G1 X142.096 Y110.606 E5.05131
G1 X142.232 Y111.363 E5.07178
G1 X142.291 Y112.282 E5.09628
G1 X142.292 Y113.045 E5.11658
G1 X142.288 Y114.226 E5.14801
G1 X142.291 Y122.69 E5.37322
G1 X142.251 Y123.459 E5.39371
G1 X142.132 Y124.218 E5.41415
G1 X141.943 Y124.937 E5.43393
G1 X141.901 Y125.069 E5.43762
G1 X141.63 Y125.789 E5.45809
G1 X141.285 Y126.476 E5.47854
G1 X140.872 Y127.125 E5.49901
G1 X140.393 Y127.727 E5.51948
G1 X139.854 Y128.276 E5.53995
G1 X139.261 Y128.766 E5.56042
G1 X138.621 Y129.192 E5.58088
G1 X137.893 Y129.57 E5.6027
G1 X137.749 Y129.635 E5.60691
G1 X137.033 Y129.914 E5.62735
G1 X136.291 Y130.118 E5.64783
G1 X135.532 Y130.244 E5.6683
G1 X134.72 Y130.29 E5.68994
G1 X133.743 Y130.292 E5.71594
G1 X132.477 Y130.288 E5.74962
G1 X100.307 Y130.291 E6.60561
G1 X99.539 Y130.251 E6.62607
G1 X98.779 Y130.132 E6.64654
G1 X98.047 Y129.938 E6.66669
G1 X97.916 Y129.896 E6.67035
G1 X97.197 Y129.623 E6.69081
G1 X96.509 Y129.277 E6.7113
G1 X95.862 Y128.862 E6.73176
G1 X95.261 Y128.382 E6.75222
G1 X94.713 Y127.842 E6.77269
G1 X94.225 Y127.248 E6.79315
G1 X93.8 Y126.607 E6.81361
G1 X93.473 Y125.986 E6.83229
G1 X93.407 Y125.845 E6.83643
G1 X93.117 Y125.133 E6.85688
G1 X92.904 Y124.394 E6.87735
G1 X92.768 Y123.637 E6.89781
G1 X92.709 Y122.718 E6.92232
G1 X92.708 Y121.955 E6.94262
G1 X92.712 Y120.774 E6.97404
G1 X92.709 Y112.309 E7.19928
G1 X92.749 Y111.54 E7.21977
G1 X92.868 Y110.781 E7.24021
G1 X93.065 Y110.037 E7.26069
G1 X93.388 Y109.21 E7.28431
G1 X93.464 Y109.045 E7.28915
G1 X93.821 Y108.364 E7.30961
G1 X94.248 Y107.724 E7.33008
G1 X94.738 Y107.132 E7.35053
G1 X95.288 Y106.593 E7.37102
G0 F3000 X95.614 Y106.839
G1 F1500 X96.206 Y106.382 E7.39092
G1 X96.843 Y105.99 E7.41082
G1 X97.519 Y105.669 E7.43073
G1 X98.107 Y105.456 E7.44737
G1 X98.829 Y105.262 E7.46726
G1 X99.569 Y105.147 E7.48719
G1 X100.256 Y105.111 E7.50549
G1 X101.251 Y105.108 E7.53197
G1 X102.522 Y105.112 E7.56579
G1 X134.693 Y105.109 E8.4218
G1 X135.44 Y105.149 E8.4417
G1 X136.179 Y105.268 E8.46162
G1 X136.831 Y105.443 E8.47958
G1 X136.962 Y105.485 E8.48324
G1 X137.661 Y105.751 E8.50314
G1 X138.328 Y106.091 E8.52306
G1 X138.955 Y106.499 E8.54297
G1 X139.534 Y106.972 E8.56286
G1 X140.06 Y107.504 E8.58277
G1 X140.526 Y108.089 E8.60267
G1 X140.927 Y108.721 E8.62258
G1 X141.165 Y109.183 E8.63641
G1 X141.231 Y109.324 E8.64055
G1 X141.511 Y110.018 E8.66047
G1 X141.716 Y110.737 E8.68036
G1 X141.843 Y111.475 E8.70028
G1 X141.891 Y112.283 E8.72182
G1 X141.892 Y113.046 E8.74212
G1 X141.888 Y114.224 E8.77347
G1 X141.891 Y122.691 E8.99876
G1 X141.851 Y123.438 E9.01866
G1 X141.732 Y124.176 E9.03855
G1 X141.561 Y124.815 E9.05616
G1 X141.519 Y124.947 E9.05984
G1 X141.255 Y125.647 E9.07975
G1 X140.917 Y126.315 E9.09967
G1 X140.51 Y126.942 E9.11956
G1 X140.038 Y127.523 E9.13948
G1 X139.507 Y128.05 E9.15938
G1 X138.923 Y128.517 E9.17928
G1 X138.293 Y128.919 E9.19916
G1 X137.729 Y129.205 E9.21599
G1 X137.585 Y129.27 E9.22019
G1 X136.888 Y129.541 E9.24009
G1 X136.165 Y129.736 E9.26002
G1 X135.427 Y129.853 E9.2799
G1 X134.719 Y129.89 E9.29876
G1 X133.742 Y129.892 E9.32476
G1 X132.478 Y129.888 E9.35839
G1 X100.307 Y129.891 E10.2144
G1 X99.56 Y129.851 E10.23431
G1 X98.821 Y129.732 E10.25422
G1 X98.169 Y129.557 E10.27219
G1 X98.038 Y129.515 E10.27585
G1 X97.339 Y129.249 E10.29575
G1 X96.672 Y128.909 E10.31567
G1 X96.045 Y128.501 E10.33557
G1 X95.466 Y128.028 E10.35546
G1 X94.94 Y127.496 E10.37537
G1 X94.474 Y126.911 E10.39527
G1 X94.073 Y126.279 E10.41519
G1 X93.835 Y125.817 E10.42902
G1 X93.769 Y125.676 E10.43316
G1 X93.489 Y124.982 E10.45307
G1 X93.284 Y124.263 E10.47296
G1 X93.157 Y123.525 E10.49289
G1 X93.109 Y122.717 E10.51443
G1 X93.108 Y121.954 E10.53473
G1 X93.112 Y120.776 E10.56607
G1 X93.109 Y112.308 E10.79139
G1 X93.149 Y111.561 E10.81129
G1 X93.268 Y110.823 E10.83119
G1 X93.465 Y110.101 E10.8511
G1 X93.751 Y109.377 E10.87181
G1 X93.827 Y109.212 E10.87665
G1 X94.176 Y108.551 E10.89653
G1 X94.593 Y107.93 E10.91644
G1 X95.075 Y107.357 E10.93636
G1 X95.614 Y106.839 E10.95625
G0 F3000 X95.94 Y107.088
G1 F1500 X96.521 Y106.652 E10.97558
G1 X97.146 Y106.282 E10.99491
G1 X98.139 Y105.866 E11.02355
G1 X98.231 Y105.836 E11.02613
G1 X98.933 Y105.649 E11.04546
G1 X99.651 Y105.541 E11.06478
G1 X100.257 Y105.511 E11.08092
G1 X101.252 Y105.508 E11.1074
G1 X102.52 Y105.512 E11.14114
G1 X134.693 Y105.509 E11.9972
G1 X135.419 Y105.549 E12.01655
G1 X136.135 Y105.668 E12.03586
G1 X136.709 Y105.824 E12.05169
G1 X136.84 Y105.866 E12.05535
G1 X137.518 Y106.126 E12.07467
G1 X138.164 Y106.458 E12.09399
G1 X138.77 Y106.859 E12.11333
G1 X139.327 Y107.325 E12.13265
G1 X139.83 Y107.849 E12.15198
G1 X140.273 Y108.425 E12.17131
G1 X140.803 Y109.353 E12.19975
G1 X140.869 Y109.494 E12.20389
G1 X141.14 Y110.168 E12.22322
G1 X141.335 Y110.867 E12.24253
G1 X141.453 Y111.584 E12.26186
G1 X141.491 Y112.283 E12.28049
G1 X141.492 Y113.046 E12.30079
G1 X141.488 Y114.223 E12.33211
G1 X141.491 Y122.691 E12.55743
G1 X141.451 Y123.416 E12.57675
G1 X141.332 Y124.132 E12.59606
G1 X141.18 Y124.694 E12.61155
G1 X141.138 Y124.826 E12.61524
G1 X140.88 Y125.505 E12.63457
G1 X140.549 Y126.152 E12.6539
G1 X140.149 Y126.758 E12.67322
G1 X139.685 Y127.317 E12.69255
G1 X139.162 Y127.821 E12.71188
G1 X138.587 Y128.264 E12.73119
G1 X137.967 Y128.642 E12.75051
G1 X137.564 Y128.841 E12.76247
G1 X137.42 Y128.906 E12.76668
G1 X136.743 Y129.168 E12.78599
G1 X136.041 Y129.353 E12.80531
G1 X135.322 Y129.461 E12.82466
G1 X134.719 Y129.49 E12.84072
G1 X133.742 Y129.492 E12.86672
G1 X132.48 Y129.488 E12.90029
G1 X100.307 Y129.491 E13.75636
G1 X99.581 Y129.451 E13.7757
G1 X98.865 Y129.332 E13.79502
G1 X98.291 Y129.176 E13.81084
G1 X98.16 Y129.134 E13.8145
G1 X97.482 Y128.874 E13.83383
G1 X96.836 Y128.542 E13.85315
G1 X96.23 Y128.141 E13.87249
G1 X95.673 Y127.675 E13.89181
G1 X95.17 Y127.151 E13.91114
G1 X94.727 Y126.575 E13.93047
G1 X94.197 Y125.647 E13.95891
G1 X94.131 Y125.506 E13.96305
G1 X93.86 Y124.832 E13.98238
G1 X93.665 Y124.133 E14.00169
G1 X93.547 Y123.416 E14.02102
G1 X93.509 Y122.717 E14.03965
G1 X93.508 Y121.954 E14.05995
G1 X93.512 Y120.777 E14.09127
G1 X93.509 Y112.308 E14.31661
G1 X93.549 Y111.583 E14.33593
G1 X93.668 Y110.867 E14.35525
G1 X93.865 Y110.167 E14.3746
G1 X94.114 Y109.545 E14.39242
G1 X94.19 Y109.38 E14.39726
G1 X94.53 Y108.738 E14.41659
G1 X94.938 Y108.137 E14.43591
G1 X95.41 Y107.585 E14.45524
G1 X95.94 Y107.088 E14.47457
G0 F3000 X96.264 Y107.339
G1 F1500 X96.833 Y106.925 E14.4933
G1 X97.446 Y106.579 E14.51203
G1 X98.263 Y106.246 E14.5355
G1 X98.355 Y106.216 E14.53808
G1 X99.035 Y106.037 E14.55679
G1 X99.732 Y105.935 E14.57553
G1 X100.258 Y105.911 E14.58954
G1 X101.253 Y105.908 E14.61601
G1 X102.519 Y105.912 E14.6497
G1 X134.693 Y105.909 E15.50579
G1 X135.396 Y105.949 E15.52453
G1 X136.09 Y106.068 E15.54326
G1 X136.587 Y106.205 E15.55698
G1 X136.718 Y106.247 E15.56064
G1 X137.375 Y106.5 E15.57937
G1 X137.999 Y106.825 E15.59809
G1 X138.582 Y107.219 E15.61682
G1 X139.117 Y107.677 E15.63555
G1 X139.597 Y108.193 E15.65431
G1 X140.015 Y108.759 E15.67303
G1 X140.44 Y109.523 E15.69629
G1 X140.506 Y109.664 E15.70043
G1 X140.768 Y110.317 E15.71915
G1 X140.954 Y110.996 E15.73789
G1 X141.062 Y111.692 E15.75663
G1 X141.091 Y112.284 E15.7724
G1 X141.092 Y113.047 E15.7927
G1 X141.088 Y114.222 E15.82397
G1 X141.091 Y122.691 E16.04931
G1 X141.051 Y123.394 E16.06805
G1 X140.932 Y124.088 E16.08678
G1 X140.799 Y124.573 E16.10016
G1 X140.757 Y124.705 E16.10385
G1 X140.506 Y125.363 E16.12259
G1 X140.182 Y125.987 E16.14129
G1 X139.789 Y126.572 E16.16005
G1 X139.332 Y127.107 E16.17877
G1 X138.818 Y127.588 E16.1975
G1 X138.252 Y128.007 E16.21624
G1 X137.4 Y128.476 E16.24212
G1 X137.256 Y128.541 E16.24632
G1 X136.599 Y128.794 E16.26505
G1 X135.917 Y128.97 E16.28379
G1 X135.22 Y129.069 E16.30253
G1 X134.718 Y129.09 E16.31589
G1 X133.741 Y129.092 E16.34189
G1 X132.481 Y129.088 E16.37542
G1 X100.307 Y129.091 E17.23151
G1 X99.604 Y129.051 E17.25024
G1 X98.91 Y128.932 E17.26898
G1 X98.413 Y128.795 E17.28269
G1 X98.282 Y128.753 E17.28636
G1 X97.625 Y128.5 E17.30509
G1 X97.001 Y128.175 E17.32381
G1 X96.418 Y127.781 E17.34253
G1 X95.883 Y127.323 E17.36127
G1 X95.403 Y126.807 E17.38002
G1 X94.985 Y126.241 E17.39874
G1 X94.56 Y125.477 E17.42201
G1 X94.494 Y125.336 E17.42615
G1 X94.232 Y124.683 E17.44487
G1 X94.046 Y124.004 E17.4636
G1 X93.938 Y123.308 E17.48234
G1 X93.909 Y122.716 E17.49811
G1 X93.908 Y121.953 E17.51842
G1 X93.912 Y120.778 E17.54968
G1 X93.909 Y112.308 E17.77505
G1 X93.949 Y111.605 E17.79379
G1 X94.068 Y110.911 E17.81252
G1 X94.265 Y110.236 E17.83123
G1 X94.478 Y109.712 E17.84628
G1 X94.554 Y109.547 E17.85112
G1 X94.884 Y108.926 E17.86983
G1 X95.283 Y108.345 E17.88858
G1 X95.745 Y107.814 E17.90731
G1 X96.264 Y107.339 E17.92603
G0 F3000 X96.078 Y108.045
G1 F1500 X96.586 Y107.592 E17.94414
G1 X97.144 Y107.202 E17.96226
G1 X97.744 Y106.88 E17.98037
G1 X98.387 Y106.627 E17.99876
G1 X98.479 Y106.597 E18.00134
G1 X99.137 Y106.424 E18.01944
G1 X99.812 Y106.33 E18.03757
G1 X100.26 Y106.311 E18.0495
G1 X101.255 Y106.308 E18.07598
G1 X102.518 Y106.312 E18.10958
G1 X134.693 Y106.309 E18.9657
G1 X135.373 Y106.349 E18.98383
G1 X136.044 Y106.468 E19.00196
G1 X136.465 Y106.586 E19.01359
G1 X136.596 Y106.628 E19.01725
G1 X137.231 Y106.873 E19.03536
G1 X137.833 Y107.192 E19.05349
G1 X138.393 Y107.578 E19.07159
G1 X138.904 Y108.028 E19.08971
G1 X139.359 Y108.535 E19.10783
G1 X139.752 Y109.091 E19.12595
G1 X140.078 Y109.692 E19.14414
G1 X140.144 Y109.833 E19.14828
G1 X140.396 Y110.466 E19.16641
G1 X140.572 Y111.123 E19.18451
G1 X140.67 Y111.797 E19.20263
G1 X140.691 Y112.284 E19.2156
G1 X140.692 Y113.047 E19.2359
G1 X140.688 Y114.22 E19.26712
G1 X140.691 Y122.691 E19.49251
G1 X140.651 Y123.371 E19.51064
G1 X140.532 Y124.041 E19.52874
G1 X140.418 Y124.452 E19.54009
G1 X140.376 Y124.584 E19.54378
G1 X140.132 Y125.219 E19.56188
G1 X139.815 Y125.822 E19.58001
G1 X139.429 Y126.383 E19.59813
G1 X138.981 Y126.895 E19.61623
G1 X138.475 Y127.352 E19.63437
G1 X137.92 Y127.745 E19.65246
G1 X137.235 Y128.111 E19.67313
G1 X137.091 Y128.176 E19.67733
G1 X136.455 Y128.42 E19.69546
G1 X135.795 Y128.587 E19.71357
G1 X135.12 Y128.675 E19.73169
G1 X134.717 Y128.69 E19.74242
G1 X133.74 Y128.692 E19.76841
G1 X132.482 Y128.688 E19.80189
G1 X100.307 Y128.691 E20.658
G1 X99.627 Y128.651 E20.67613
G1 X98.956 Y128.532 E20.69426
G1 X98.535 Y128.414 E20.70589
G1 X98.404 Y128.372 E20.70955
G1 X97.769 Y128.127 E20.72766
G1 X97.167 Y127.808 E20.74579
G1 X96.607 Y127.422 E20.76389
G1 X96.096 Y126.972 E20.78201
G1 X95.641 Y126.465 E20.80013
G1 X95.248 Y125.909 E20.81825
G1 X94.922 Y125.308 E20.83644
G1 X94.856 Y125.167 E20.84058
G1 X94.604 Y124.534 E20.85871
G1 X94.428 Y123.877 E20.87681
G1 X94.33 Y123.203 E20.89493
G1 X94.309 Y122.716 E20.9079
G1 X94.308 Y121.953 E20.92821
G1 X94.312 Y120.78 E20.95942
G1 X94.309 Y112.308 E21.18484
G1 X94.349 Y111.628 E21.20297
G1 X94.468 Y110.958 E21.22107
G1 X94.665 Y110.306 E21.2392
G1 X94.841 Y109.88 E21.25146
G1 X94.917 Y109.715 E21.25629
G1 X95.238 Y109.114 E21.27442
G1 X95.626 Y108.555 E21.29253
G1 X96.078 Y108.045 E21.31066
G0 F3000 X96.411 Y108.279
G1 F1500 X96.907 Y107.849 E21.32813
G1 X97.453 Y107.483 E21.34562
G1 X98.039 Y107.186 E21.3631
G1 X98.603 Y106.977 E21.3791
G1 X99.239 Y106.812 E21.39659
G1 X99.89 Y106.725 E21.41406
G1 X100.261 Y106.711 E21.42394
G1 X101.256 Y106.708 E21.45042
G1 X102.517 Y106.712 E21.48397
G1 X134.693 Y106.709 E22.34011
G1 X135.349 Y106.749 E22.3576
G1 X135.995 Y106.868 E22.37508
G1 X136.474 Y107.009 E22.38836
G1 X137.086 Y107.247 E22.40583
