;FLAVOR:Marlin
;TIME:4206
;Filament used: 2.66451m
;Layer height: 0.16
;MINX:100.261
;MINY:82.755
;MINZ:0.192
;MAXX:134.745
;MAXY:152.245
;MAXZ:6.822
;Generated with Cura_SteamEngine 4.6.1
M140 S60
M105
M190 S60
M104 S215
M105
M109 S215
M82 ;absolute extrusion mode
; Ender 3 Custom Start G-code
G92 E0 ; Reset Extruder
G28 ; Home all axes
G1 Z2.0 F3000 ; Move Z Axis up little to prevent scratching of Heat Bed
G1 X0.1 Y20 Z0.3 F5000.0 ; Move to start position
G1 X0.1 Y200.0 Z0.3 F1500.0 E15 ; Draw the first line
G1 X0.4 Y200.0 Z0.3 F5000.0 ; Move to side a little
G1 X0.4 Y20 Z0.3 F1500.0 E30 ; Draw the second line
G92 E0 ; Reset Extruder
G1 Z2.0 F3000 ; Move Z Axis up little to prevent scratching of Heat Bed
G1 X5 Y20 Z0.3 F5000.0 ; Move over to prevent blob squish
G92 E0
G92 E0
G1 F2400 E-0.6
;LAYER_COUNT:37
;LAYER:-6
M107
M204 S500
M205 X8 Y8
G0 F9000 X103.679 Y87.485 Z0.192
;TYPE:SUPPORT-INTERFACE
G1 F1200 E0
G1 F1125 X103.917 Y87.209 E0.02327
G1 X104.188 Y86.921 E0.04853
G1 X104.516 Y86.598 E0.07792
G1 X104.683 Y86.442 E0.09252
G1 X104.972 Y86.191 E0.11696
G1 X105.248 Y85.968 E0.13962
G1 X105.521 Y85.763 E0.16142
G1 X105.773 Y85.585 E0.18113
G1 X106.093 Y85.376 E0.20553
G1 X106.383 Y85.201 E0.22716
G1 X106.679 Y85.035 E0.24883
G1 X106.947 Y84.896 E0.26811
G1 X107.284 Y84.735 E0.29196
G1 X107.568 Y84.61 E0.31178
G1 X107.922 Y84.47 E0.33609
G1 X108.239 Y84.358 E0.35756
G1 X108.57 Y84.252 E0.37975
G1 X108.914 Y84.156 E0.40256
G1 X109.245 Y84.074 E0.42434
G1 X109.616 Y83.998 E0.44852
G1 X109.947 Y83.941 E0.46997
G1 X110.28 Y83.895 E0.49144
G1 X110.609 Y83.861 E0.51256
G1 X110.972 Y83.835 E0.5358
G1 X111.52 Y83.82 E0.57081
G1 X123.645 Y83.823 E1.3451
G1 X124.051 Y83.837 E1.37105
G1 X124.397 Y83.861 E1.39319
G1 X124.743 Y83.896 E1.4154
G1 X125.036 Y83.936 E1.43429
G1 X125.419 Y84.004 E1.45913
G1 X125.747 Y84.072 E1.48052
G1 X126.089 Y84.156 E1.50301
G1 X126.414 Y84.246 E1.52454
G1 X126.769 Y84.36 E1.54835
G1 X127.025 Y84.45 E1.56568
G1 X127.407 Y84.6 E1.59189
G1 X127.721 Y84.737 E1.61377
G1 X128.045 Y84.893 E1.63673
G1 X128.316 Y85.033 E1.65621
G1 X128.803 Y85.312 E1.69205
G1 X129.255 Y85.605 E1.72645
G1 X129.516 Y85.79 E1.74688
G1 X129.762 Y85.976 E1.76657
G1 X130.012 Y86.176 E1.78702
G1 X130.296 Y86.422 E1.81101
G1 X130.575 Y86.684 E1.83545
G1 X130.889 Y87.002 E1.86399
G1 X131.058 Y87.183 E1.87981
G1 X131.309 Y87.472 E1.90425
G1 X131.532 Y87.748 E1.92691
G1 X131.725 Y88.005 E1.94743
G1 X131.905 Y88.258 E1.96726
G1 X132.125 Y88.594 E1.99291
G1 X132.293 Y88.872 E2.01365
G1 X132.457 Y89.165 E2.03509
G1 X132.594 Y89.427 E2.05398
G1 X132.765 Y89.784 E2.07925
G1 X132.89 Y90.068 E2.09907
G1 X133.024 Y90.407 E2.12235
G1 X133.13 Y90.703 E2.14242
G1 X133.242 Y91.05 E2.16571
G1 X133.351 Y91.437 E2.19138
G1 X133.425 Y91.738 E2.21118
G1 X133.502 Y92.116 E2.23581
G1 X133.564 Y92.476 E2.25914
G1 X133.6 Y92.74 E2.27616
G1 X133.639 Y93.104 E2.29953
G1 X133.665 Y93.479 E2.32354
G1 X133.68 Y94.016 E2.35784
G1 X133.677 Y141.144 E5.36741
G1 X133.663 Y141.553 E5.39355
G1 X133.64 Y141.891 E5.41518
G1 X133.614 Y142.153 E5.43199
G1 X133.564 Y142.533 E5.45647
G1 X133.502 Y142.893 E5.4798
G1 X133.428 Y143.247 E5.50289
G1 X133.352 Y143.563 E5.52365
G1 X133.26 Y143.893 E5.54553
G1 X133.141 Y144.267 E5.57059
G1 X133.051 Y144.525 E5.58804
G1 X132.897 Y144.914 E5.61476
G1 X132.763 Y145.221 E5.63615
G1 X132.607 Y145.545 E5.65911
G1 X132.467 Y145.816 E5.67859
G1 X132.276 Y146.156 E5.70349
G1 X132.098 Y146.447 E5.72528
G1 X131.902 Y146.745 E5.74805
G1 X131.709 Y147.017 E5.76935
G1 X131.525 Y147.262 E5.78892
G1 X131.326 Y147.509 E5.80917
G1 X131.083 Y147.791 E5.83295
G1 X130.816 Y148.075 E5.85784
G1 X130.505 Y148.383 E5.88579
G1 X130.312 Y148.562 E5.9026
G1 X130.028 Y148.809 E5.92664
G1 X129.778 Y149.011 E5.94716
G1 X129.491 Y149.228 E5.97014
G1 X129.227 Y149.415 E5.9908
G1 X128.898 Y149.63 E6.0159
G1 X128.624 Y149.795 E6.03632
G1 X128.321 Y149.965 E6.05851
G1 X128.053 Y150.104 E6.07779
G1 X127.715 Y150.266 E6.10172
G1 X127.426 Y150.393 E6.12188
G1 X127.078 Y150.53 E6.14576
G1 X126.756 Y150.643 E6.16756
G1 X126.43 Y150.749 E6.18945
G1 X126.086 Y150.844 E6.21224
G1 X125.754 Y150.926 E6.23408
G1 X125.383 Y151.002 E6.25826
G1 X125.053 Y151.059 E6.27965
G1 X124.72 Y151.105 E6.30111
G1 X124.391 Y151.139 E6.32223
G1 X124.028 Y151.165 E6.34547
G1 X123.48 Y151.18 E6.38048
G1 X111.355 Y151.177 E7.15478
G1 X110.949 Y151.163 E7.18072
G1 X110.603 Y151.139 E7.20287
G1 X110.258 Y151.104 E7.22501
G1 X109.951 Y151.061 E7.24481
G1 X109.581 Y150.996 E7.2688
G1 X109.253 Y150.928 E7.29019
G1 X108.911 Y150.844 E7.31268
G1 X108.586 Y150.754 E7.33422
G1 X108.231 Y150.64 E7.35803
G1 X107.989 Y150.556 E7.37438
G1 X107.587 Y150.397 E7.40199
G1 X107.268 Y150.258 E7.42421
G1 X106.953 Y150.106 E7.44655
G1 X106.68 Y149.965 E7.46617
G1 X106.196 Y149.687 E7.50181
G1 X105.745 Y149.395 E7.53612
G1 X105.487 Y149.212 E7.55632
G1 X105.218 Y149.009 E7.57784
G1 X104.985 Y148.821 E7.59696
G1 X104.704 Y148.578 E7.62069
G1 X104.414 Y148.305 E7.64612
G1 X104.112 Y147.999 E7.67357
G1 X103.919 Y147.792 E7.69165
G1 X103.672 Y147.505 E7.71583
G1 X103.465 Y147.247 E7.73695
G1 X103.273 Y146.992 E7.75734
G1 X103.068 Y146.701 E7.78007
G1 X102.875 Y146.407 E7.80253
G1 X102.702 Y146.119 E7.82398
G1 X102.518 Y145.789 E7.84811
G1 X102.4 Y145.562 E7.86445
G1 X102.233 Y145.212 E7.88921
G1 X102.104 Y144.918 E7.90971
G1 X101.971 Y144.581 E7.93285
G1 X101.85 Y144.237 E7.95614
G1 X101.741 Y143.893 E7.97918
G1 X101.648 Y143.557 E8.00144
G1 X101.524 Y143.023 E8.03645
G1 X101.435 Y142.518 E8.0692
G1 X101.394 Y142.21 E8.08904
G1 X101.361 Y141.897 E8.10914
G1 X101.335 Y141.522 E8.13314
G1 X101.32 Y141.034 E8.16432
G1 X101.323 Y93.855 E11.17715
G1 X101.337 Y93.447 E11.20322
G1 X101.361 Y93.101 E11.22537
G1 X101.399 Y92.738 E11.24867
G1 X101.436 Y92.467 E11.26614
G1 X101.498 Y92.107 E11.28947
G1 X101.572 Y91.753 E11.31256
G1 X101.652 Y91.423 E11.33425
G1 X101.737 Y91.115 E11.35465
G1 X101.871 Y90.7 E11.3825
G1 X101.95 Y90.475 E11.39773
G1 X102.102 Y90.089 E11.42422
G1 X102.243 Y89.767 E11.44667
G1 X102.401 Y89.438 E11.46997
G1 X102.538 Y89.174 E11.48897
G1 X102.813 Y88.696 E11.52418
G1 X103.105 Y88.245 E11.55849
G1 X103.289 Y87.987 E11.57873
G1 X103.476 Y87.738 E11.59862
G1 X103.679 Y87.485 E11.61933
G0 F9000 X104 Y87.12
G1 F1125 X104 Y147.878 E15.4993
G0 F9000 X105.6 Y149.292
G1 F1125 X105.6 Y85.707 E19.55981
G0 F9000 X107.2 Y84.775
G1 F1125 X107.2 Y150.225 E23.73941
G0 F9000 X108.8 Y150.813
G1 F1125 X108.8 Y84.187 E27.99411
G0 F9000 X110.4 Y83.882
G1 F1125 X110.4 Y151.118 E32.28776
G0 F9000 X112 Y151.177
G1 F1125 X112 Y83.821 E36.58908
G0 F9000 X113.6 Y83.821
G1 F1125 X113.6 Y151.177 E40.8904
G0 F9000 X115.2 Y151.177
G1 F1125 X115.2 Y83.821 E45.19172
G0 F9000 X116.8 Y83.822
G1 F1125 X116.8 Y151.178 E49.49304
G0 F9000 X118.4 Y151.178
G1 F1125 X118.4 Y83.822 E53.79435
G0 F9000 X120 Y83.823
G1 F1125 X120 Y151.179 E58.09567
G0 F9000 X121.6 Y151.179
G1 F1125 X121.6 Y83.823 E62.39699
G0 F9000 X123.2 Y83.823
G1 F1125 X123.2 Y151.179 E66.69831
G0 F9000 X124.8 Y151.094
G1 F1125 X124.8 Y83.904 E70.98902
G0 F9000 X126.4 Y84.243
G1 F1125 X126.4 Y150.758 E75.23664
G0 F9000 X128 Y150.13
G1 F1125 X128 Y84.872 E79.40398
G0 F9000 X129.6 Y85.854
G1 F1125 X129.6 Y149.146 E83.44577
G0 F9000 X131.2 Y147.656
G1 F1125 X131.2 Y87.347 E87.29707
G0 F9000 X132.8 Y89.864
G1 F1125 X132.8 Y145.137 E90.82677
G1 F2400 E90.22677
G0 F9000 X133.727 Y145.67
G0 X132.861 Y147.228
G0 X131.864 Y148.514
G0 X130.512 Y149.788
G0 X129.153 Y150.719
G0 X127.498 Y151.509
G0 X125.737 Y152.019
G0 X124.074 Y152.227
G0 X110.626 Y152.209
G0 X109.008 Y151.964
G0 X107.257 Y151.413
G0 X105.79 Y150.685
G0 X104.563 Y149.848
G0 X103.342 Y148.734
G0 X102.298 Y147.434
G0 X101.578 Y146.289
G0 X102.4 Y145.562
G1 F1200 E90.82677
G1 F1125 X102.4 Y89.44 E94.41069
G1 F2400 E93.81069
G0 F300 X102.4 Y89.44 Z0.432
G0 F9000 X101.565 Y88.738
G0 X102.435 Y87.351
G0 X103.433 Y86.171
G0 X104.803 Y84.97
G0 X106.181 Y84.094
G0 X107.859 Y83.363
G0 X109.684 Y82.904
G0 X111.513 Y82.755
G0 X124.374 Y82.791
G0 X125.992 Y83.036
G0 X127.739 Y83.586
G0 X129.21 Y84.315
G0 X130.421 Y85.14
G0 X130.053 Y86.213
;TIME_ELAPSED:87.302365
;LAYER:-5
M140 S60
;TYPE:SUPPORT
G1 F1200 E94.41069
G1 F1125 X130.011 Y86.176 E94.41516
G1 X129.761 Y85.975 E94.44077
G1 X129.515 Y85.79 E94.46534
G1 X129.254 Y85.604 E94.49092
G1 X128.802 Y85.312 E94.53388
G1 X128.315 Y85.033 E94.57868
G1 X128.044 Y84.892 E94.60306
G1 X127.72 Y84.736 E94.63177
G1 X127.406 Y84.599 E94.65911
G1 X127.024 Y84.449 E94.69187
G1 X126.796 Y84.369 E94.71116
G1 X133.129 Y90.702 E95.42609
G1 X133.241 Y91.049 E95.45519
G1 X133.35 Y91.437 E95.48736
G1 X133.424 Y91.737 E95.51203
G1 X133.501 Y92.116 E95.5429
G1 X133.563 Y92.476 E95.57206
G1 X133.575 Y92.563 E95.57907
G1 X124.934 Y83.922 E96.55454
G1 X124.742 Y83.896 E96.57001
G1 X124.396 Y83.86 E96.59777
G1 X124.05 Y83.837 E96.62545
G1 X123.644 Y83.823 E96.65788
G1 X123.421 Y83.823 E96.67568
G1 X133.679 Y94.081 E97.83369
G1 X133.679 Y95.495 E97.94657
G1 X122.007 Y83.823 E99.2642
G1 X120.592 Y83.822 E99.37715
G1 X133.679 Y96.909 E100.85453
G1 X133.679 Y98.323 E100.9674
G1 X119.177 Y83.822 E102.60445
G1 X117.763 Y83.822 E102.71733
G1 X133.679 Y99.738 E104.51406
G1 X133.679 Y101.152 E104.62693
G1 X116.348 Y83.821 E106.58341
G1 X114.934 Y83.821 E106.69628
G1 X133.679 Y102.566 E108.81238
G1 X133.679 Y103.98 E108.92525
G1 X113.519 Y83.821 E111.20103
G1 X112.105 Y83.821 E111.3139
G1 X133.679 Y105.394 E113.7493
G1 X133.679 Y106.809 E113.86225
G1 X110.723 Y83.853 E116.45372
G1 X110.608 Y83.861 E116.46293
G1 X110.279 Y83.894 E116.48932
G1 X109.946 Y83.94 E116.51615
G1 X109.614 Y83.997 E116.54304
G1 X109.481 Y84.025 E116.55389
G1 X133.679 Y108.223 E119.28557
G1 X133.679 Y109.637 E119.39844
G1 X108.36 Y84.318 E122.25667
G1 X108.238 Y84.357 E122.26689
G1 X107.921 Y84.469 E122.29373
G1 X107.567 Y84.61 E122.32415
G1 X107.338 Y84.71 E122.3441
G1 X133.678 Y111.051 E125.31764
G1 X133.678 Y112.465 E125.43051
G1 X106.403 Y85.19 E128.50955
G1 X106.382 Y85.201 E128.51144
G1 X106.092 Y85.376 E128.53848
G1 X105.772 Y85.584 E128.56894
G1 X105.544 Y85.745 E128.59122
G1 X133.678 Y113.879 E131.76723
G1 X133.678 Y115.293 E131.8801
G1 X104.759 Y86.375 E135.14467
G1 X104.682 Y86.441 E135.15277
G1 X104.515 Y86.598 E135.17107
G1 X104.187 Y86.921 E135.20781
G1 X104.043 Y87.073 E135.22453
G1 X133.678 Y116.707 E138.56992
G1 X133.678 Y118.122 E138.68288
G1 X103.397 Y87.841 E142.10126
G1 X103.288 Y87.986 E142.11574
G1 X103.103 Y88.244 E142.14108
G1 X102.822 Y88.68 E142.18248
G1 X133.678 Y119.536 E145.66578
G1 X133.678 Y120.95 E145.77865
G1 X102.324 Y89.596 E149.31816
G1 X102.241 Y89.767 E149.33333
G1 X102.101 Y90.088 E149.36129
G1 X101.949 Y90.475 E149.39448
G1 X101.907 Y90.593 E149.40447
G1 X133.678 Y122.364 E152.99106
G1 X133.678 Y123.779 E153.10401
G1 X101.587 Y91.687 E156.72678
G1 X101.571 Y91.752 E156.73212
G1 X101.497 Y92.107 E156.76107
G1 X101.435 Y92.466 E156.79015
G1 X101.398 Y92.737 E156.81198
G1 X101.381 Y92.896 E156.82474
G1 X133.678 Y125.193 E160.47071
G1 X133.677 Y126.606 E160.5835
G1 X101.321 Y94.25 E164.23613
G1 X101.321 Y95.664 E164.349
G1 X133.677 Y128.02 E168.00162
G1 X133.677 Y129.435 E168.11457
G1 X101.321 Y97.078 E171.76726
G1 X101.321 Y98.492 E171.88013
G1 X133.677 Y130.849 E175.53281
G1 X133.677 Y132.263 E175.64568
G1 X101.321 Y99.907 E179.2983
G1 X101.321 Y101.321 E179.41118
G1 X133.677 Y133.677 E183.0638
G1 X133.677 Y135.092 E183.17675
G1 X101.321 Y102.735 E186.82943
G1 X101.321 Y104.149 E186.94231
G1 X133.677 Y136.506 E190.59499
G1 X133.677 Y137.92 E190.70786
G1 X101.321 Y105.563 E194.36054
G1 X101.321 Y106.978 E194.47349
G1 X133.677 Y139.334 E198.12612
G1 X133.677 Y140.748 E198.23899
G1 X101.321 Y108.392 E201.89161
G1 X101.32 Y109.805 E202.0044
G1 X133.619 Y142.104 E205.65059
G1 X133.614 Y142.151 E205.65437
G1 X133.563 Y142.532 E205.68505
G1 X133.501 Y142.892 E205.71421
G1 X133.427 Y143.246 E205.74308
G1 X133.411 Y143.311 E205.74842
G1 X101.32 Y111.22 E209.37113
G1 X101.32 Y112.634 E209.484
G1 X133.092 Y144.406 E213.0707
G1 X133.05 Y144.524 E213.0807
G1 X132.897 Y144.913 E213.11407
G1 X132.762 Y145.22 E213.14084
G1 X132.675 Y145.403 E213.15701
G1 X101.32 Y114.048 E216.69664
G1 X101.32 Y115.462 E216.80951
G1 X132.176 Y146.318 E220.2928
G1 X132.098 Y146.446 E220.30477
G1 X131.902 Y146.744 E220.33324
G1 X131.709 Y147.016 E220.35986
G1 X131.602 Y147.158 E220.37405
G1 X101.32 Y116.876 E223.79255
G1 X101.32 Y118.291 E223.9055
G1 X130.955 Y147.926 E227.25095
G1 X130.816 Y148.073 E227.2671
G1 X130.505 Y148.382 E227.3021
G1 X130.312 Y148.561 E227.32311
G1 X130.239 Y148.623 E227.33075
G1 X101.32 Y119.705 E230.59533
G1 X101.32 Y121.119 E230.7082
G1 X129.454 Y149.253 E233.88421
G1 X129.226 Y149.414 E233.90649
G1 X128.898 Y149.629 E233.93779
G1 X128.623 Y149.794 E233.96339
G1 X128.595 Y149.809 E233.96593
G1 X101.32 Y122.533 E237.04502
G1 X101.32 Y123.948 E237.15797
G1 X127.661 Y150.288 E240.13152
G1 X127.425 Y150.392 E240.1521
G1 X127.077 Y150.529 E240.18196
G1 X126.755 Y150.642 E240.2092
G1 X126.638 Y150.68 E240.21902
G1 X101.319 Y125.361 E243.07724
G1 X101.319 Y126.775 E243.19012
G1 X125.517 Y150.973 E245.9218
G1 X125.382 Y151.001 E245.9328
G1 X125.052 Y151.058 E245.95953
G1 X124.719 Y151.104 E245.98637
G1 X124.391 Y151.138 E246.01269
G1 X124.276 Y151.146 E246.02189
G1 X101.319 Y128.189 E248.61348
G1 X101.319 Y129.604 E248.72643
G1 X122.893 Y151.178 E251.16189
G1 X121.479 Y151.178 E251.27476
G1 X101.319 Y131.018 E253.55059
G1 X101.319 Y132.432 E253.66347
G1 X120.065 Y151.178 E255.77968
G1 X118.65 Y151.177 E255.89263
G1 X101.319 Y133.846 E257.8491
G1 X101.319 Y135.261 E257.96205
G1 X117.236 Y151.177 E259.75884
G1 X115.821 Y151.177 E259.8718
G1 X101.319 Y136.675 E261.50891
G1 X101.319 Y138.089 E261.62178
G1 X114.407 Y151.176 E263.09921
G1 X112.992 Y151.176 E263.21216
G1 X101.319 Y139.503 E264.52991
G1 X101.319 Y140.917 E264.64278
G1 X111.578 Y151.176 E265.8009
G1 X111.355 Y151.176 E265.81871
G1 X110.949 Y151.162 E265.85113
G1 X110.602 Y151.138 E265.8789
G1 X110.257 Y151.103 E265.90658
G1 X110.063 Y151.076 E265.92221
G1 X101.423 Y142.435 E266.89763
G1 X101.434 Y142.517 E266.90423
G1 X101.523 Y143.022 E266.94517
G1 X101.648 Y143.556 E266.98894
G1 X101.741 Y143.891 E267.0167
G1 X101.849 Y144.236 E267.04555
G1 X101.87 Y144.297 E267.0507
G1 X108.202 Y150.629 E267.76551
G1 X107.988 Y150.555 E267.78359
G1 X107.587 Y150.396 E267.81802
G1 X107.268 Y150.257 E267.8458
G1 X106.953 Y150.105 E267.87372
G1 X106.679 Y149.964 E267.89832
G1 X106.196 Y149.686 E267.9428
G1 X105.744 Y149.394 E267.98576
G1 X105.486 Y149.211 E268.01101
G1 X105.218 Y149.007 E268.03789
G1 X104.984 Y148.819 E268.06185
G1 X104.943 Y148.783 E268.06621
G1 X103.724 Y147.565 E268.20376
G0 F9000 X103.919 Y147.79
G1 F1125 X104.112 Y147.998 E268.22641
G1 X104.414 Y148.304 E268.26073
G1 X104.704 Y148.577 E268.29252
G1 X104.943 Y148.783 E268.31771
G1 F2400 E267.71771
G0 F9000 X104.248 Y149.591
G0 X105.294 Y150.381
G0 X106.934 Y151.274
G0 X108.69 Y151.887
G0 X110.507 Y152.199
G0 X111.55 Y152.245
G0 X124.206 Y152.22
G0 X126.038 Y151.953
G0 X127.837 Y151.375
G0 X129.468 Y150.529
G0 X130.784 Y149.565
G0 X131.902 Y148.472
G0 X132.881 Y147.206
G0 X133.785 Y145.544
G0 X134.388 Y143.805
G0 X134.699 Y141.991
G0 X134.745 Y140.951
G0 X134.718 Y93.262
G0 X134.476 Y91.55
G0 X134.023 Y90.038
G0 X133.216 Y88.343
G0 X132.954 Y87.96
G0 X132.128 Y86.792
G0 X131.28 Y87.44
G1 F1200 E268.31771
G1 F1125 X130.053 Y86.213 E268.45622
G1 X130.295 Y86.421 E268.4817
G1 X130.574 Y86.684 E268.5123
G1 X130.888 Y87.002 E268.54798
G1 X131.057 Y87.182 E268.56769
G1 F2400 E267.96769
G0 F300 X131.057 Y87.182 Z0.592
G0 F9000 X131.585 Y86.19
G0 X130.421 Y85.14
G0 X129.097 Y84.25
G0 X127.723 Y83.606
G0 X126.711 Y83.224
G0 X126.142 Y83.962
;TIME_ELAPSED:207.636785
;LAYER:-4
;TYPE:SUPPORT-INTERFACE
G1 F1200 E268.56769
G1 F1500 X125.797 Y83.877 E268.57714
G1 X125.411 Y83.797 E268.58763
G1 X125.067 Y83.738 E268.59692
G1 X124.77 Y83.698 E268.60489
G1 X124.411 Y83.66 E268.6145
G1 X124.058 Y83.636 E268.62391
G1 X123.651 Y83.622 E268.63475
G1 X111.518 Y83.62 E268.95758
G1 X110.969 Y83.636 E268.9722
