;FLAVOR:Marlin
;TIME:2020
;Filament used: 0.997122m
;Layer height: 0.16
;MINX:94.912
;MINY:104.849
;MINZ:0.24
;MAXX:140.087
;MAXY:135.109
;MAXZ:10.88
;Generated with Cura_SteamEngine 4.6.1
M140 S60
M105
M190 S60
M104 S205
M105
M109 S205
M82 ;absolute extrusion mode
; Ender 3 Custom Start G-code
G92 E0 ; Reset Extruder
G28 ; Home all axes
G1 Z2.0 F3000 ; Move Z Axis up little to prevent scratching of Heat Bed
G1 X0.1 Y20 Z0.3 F5000.0 ; Move to start position
G1 X0.1 Y200.0 Z0.3 F1500.0 E15 ; Draw the first line
G1 X0.4 Y200.0 Z0.3 F5000.0 ; Move to side a little
G1 X0.4 Y20 Z0.3 F1500.0 E30 ; Draw the second line
G92 E0 ; Reset Extruder
G1 Z2.0 F3000 ; Move Z Axis up little to prevent scratching of Heat Bed
G1 X5 Y20 Z0.3 F5000.0 ; Move over to prevent blob squish
G92 E0
G92 E0
G1 F1500 E-1.2
;LAYER_COUNT:62
;LAYER:-6
M107
G0 F6000 X98.653 Y109.619 Z0.24
;TYPE:SUPPORT-INTERFACE
G1 F1500 E0
G1 F1125 X98.942 Y109.376 E0.03014
G1 X99.266 Y109.121 E0.06305
G1 X99.571 Y108.902 E0.09303
G1 X99.968 Y108.64 E0.13099
G1 X100.305 Y108.437 E0.1624
G1 X100.676 Y108.232 E0.19623
G1 X100.995 Y108.073 E0.22469
G1 X101.418 Y107.88 E0.2618
G1 X101.776 Y107.735 E0.29263
G1 X102.143 Y107.601 E0.32382
G1 X102.517 Y107.482 E0.35515
G1 X102.961 Y107.359 E0.39193
G1 X103.372 Y107.265 E0.42558
G1 X103.707 Y107.2 E0.45282
G1 X104.113 Y107.138 E0.4856
G1 X104.561 Y107.088 E0.52159
G1 X104.917 Y107.061 E0.55009
G1 X105.558 Y107.041 E0.60128
G1 X107.595 Y107.041 E0.76388
G1 X108.263 Y106.999 E0.81731
G1 X108.934 Y106.87 E0.87185
G1 X109.584 Y106.657 E0.92645
G1 X109.857 Y106.525 E0.95066
G1 X109.866 Y106.543 E0.95227
G1 X110.755 Y106.063 E1.03291
G1 X111.245 Y105.833 E1.07612
G1 X111.706 Y105.648 E1.11577
G1 X112.226 Y105.471 E1.15962
G1 X112.707 Y105.337 E1.19948
G1 X113.218 Y105.224 E1.24125
G1 X113.742 Y105.139 E1.28363
G1 X114.113 Y105.096 E1.31344
G1 X114.266 Y105.084 E1.32569
G1 X114.763 Y105.056 E1.36543
G1 X115.011 Y105.049 E1.38523
G1 X120.189 Y105.056 E1.79856
G1 X120.815 Y105.091 E1.84861
G1 X121.343 Y105.151 E1.89103
G1 X121.874 Y105.243 E1.93405
G1 X122.396 Y105.364 E1.97682
G1 X122.873 Y105.502 E2.01646
G1 X123.392 Y105.685 E2.06039
G1 X123.833 Y105.866 E2.09844
G1 X124.34 Y106.111 E2.14339
G1 X124.728 Y106.324 E2.17872
G1 X125.329 Y106.622 E2.23227
G1 X125.975 Y106.845 E2.28682
G1 X126.644 Y106.986 E2.3414
G1 X127.399 Y107.04 E2.40182
G1 X129.687 Y107.045 E2.58446
G1 X130.159 Y107.067 E2.62217
G1 X130.459 Y107.091 E2.6462
G1 X130.972 Y107.15 E2.68742
G1 X131.366 Y107.213 E2.71927
G1 X131.792 Y107.301 E2.75399
G1 X132.081 Y107.372 E2.77775
G1 X132.551 Y107.502 E2.81667
G1 X132.95 Y107.632 E2.85017
G1 X133.29 Y107.759 E2.87914
G1 X133.608 Y107.892 E2.90666
G1 X134.063 Y108.1 E2.94659
G1 X134.468 Y108.309 E2.98297
G1 X134.812 Y108.506 E3.01461
G1 X135.073 Y108.666 E3.03905
G1 X135.496 Y108.949 E3.07968
G1 X135.827 Y109.193 E3.1125
G1 X136.147 Y109.45 E3.14526
G1 X136.363 Y109.634 E3.16791
G1 X136.718 Y109.96 E3.20639
G1 X137.019 Y110.262 E3.24042
G1 X137.302 Y110.573 E3.27399
G1 X137.516 Y110.825 E3.30038
G1 X137.822 Y111.214 E3.33989
G1 X138.041 Y111.516 E3.36966
G1 X138.268 Y111.86 E3.40256
G1 X138.473 Y112.198 E3.43412
G1 X138.689 Y112.587 E3.46964
G1 X138.873 Y112.954 E3.50241
G1 X139.046 Y113.335 E3.53581
G1 X139.183 Y113.672 E3.56485
G1 X139.344 Y114.115 E3.60247
G1 X139.46 Y114.481 E3.63312
G1 X139.561 Y114.839 E3.66281
G1 X139.653 Y115.234 E3.69519
G1 X139.736 Y115.657 E3.7296
G1 X139.796 Y116.047 E3.7611
G1 X139.842 Y116.455 E3.79387
G1 X139.87 Y116.828 E3.82373
G1 X139.887 Y117.285 E3.86023
G1 X139.887 Y117.613 E3.88642
G1 X139.87 Y118.076 E3.9234
G1 X139.837 Y118.47 E3.95496
G1 X139.78 Y118.925 E3.99156
G1 X139.742 Y119.167 E4.01112
G1 X139.652 Y119.641 E4.04963
G1 X139.528 Y120.144 E4.09099
G1 X139.428 Y120.487 E4.1195
G1 X139.326 Y120.801 E4.14586
G1 X139.17 Y121.232 E4.18245
G1 X138.987 Y121.665 E4.21997
G1 X138.822 Y122.015 E4.25086
G1 X138.691 Y122.274 E4.27403
G1 X138.506 Y122.612 E4.30479
G1 X138.227 Y123.071 E4.34766
G1 X137.988 Y123.422 E4.38156
G1 X137.804 Y123.674 E4.40647
G1 X137.479 Y124.085 E4.44829
G1 X137.235 Y124.369 E4.47818
G1 X136.988 Y124.635 E4.50716
G1 X136.74 Y124.883 E4.53515
G1 X136.327 Y125.263 E4.57995
G1 X136.056 Y125.491 E4.60822
G1 X135.742 Y125.737 E4.64006
G1 X135.422 Y125.967 E4.67152
G1 X135.052 Y126.212 E4.70694
G1 X134.708 Y126.421 E4.73907
G1 X134.323 Y126.633 E4.77416
G1 X133.999 Y126.795 E4.80307
G1 X133.554 Y126.996 E4.84205
G1 X133.224 Y127.131 E4.87051
G1 X132.864 Y127.262 E4.90109
G1 X132.507 Y127.376 E4.93101
G1 X132.07 Y127.499 E4.96724
G1 X131.702 Y127.587 E4.99745
G1 X131.25 Y127.673 E5.03418
G1 X130.881 Y127.728 E5.06396
G1 X130.395 Y127.781 E5.10298
G1 X130.072 Y127.805 E5.12884
G1 X129.445 Y127.824 E5.17891
G1 X127.634 Y127.824 E5.32347
G1 X126.966 Y127.866 E5.3769
G1 X126.295 Y127.995 E5.43144
G1 X125.645 Y128.208 E5.48604
G1 X124.953 Y128.543 E5.54741
G1 X124.489 Y128.811 E5.59019
G1 X123.993 Y129.061 E5.63452
G1 X123.506 Y129.271 E5.67686
G1 X122.964 Y129.467 E5.72286
G1 X122.588 Y129.582 E5.75425
G1 X121.961 Y129.82 E5.80779
G1 X121.358 Y130.14 E5.86228
G1 X120.801 Y130.534 E5.91674
G1 X120.296 Y130.995 E5.97132
G1 X119.857 Y131.514 E6.02558
G1 X119.423 Y132.161 E6.08777
G1 X119.321 Y132.304 E6.10179
G1 X119.223 Y132.43 E6.11453
G1 X118.965 Y132.744 E6.14698
G1 X118.826 Y132.899 E6.16359
G1 X118.686 Y133.039 E6.1794
G1 X118.416 Y133.287 E6.20866
G1 X118.074 Y133.571 E6.24415
G1 X117.919 Y133.687 E6.2596
G1 X117.733 Y133.812 E6.27749
G1 X117.455 Y133.983 E6.30354
G1 X117.085 Y134.185 E6.33719
G1 X116.865 Y134.29 E6.35665
G1 X116.502 Y134.437 E6.38792
G1 X116.337 Y134.494 E6.40185
G1 X115.925 Y134.623 E6.43631
G1 X115.736 Y134.672 E6.4519
G1 X115.5 Y134.721 E6.47114
G1 X115.167 Y134.774 E6.49805
G1 X114.719 Y134.82 E6.534
G1 X114.531 Y134.831 E6.54904
G1 X114.097 Y134.827 E6.58368
G1 X113.959 Y134.819 E6.59472
G1 X113.535 Y134.781 E6.6287
G1 X113.324 Y134.752 E6.6457
G1 X113.135 Y134.717 E6.66104
G1 X112.832 Y134.65 E6.68581
G1 X112.169 Y134.547 E6.73937
G1 X111.487 Y134.528 E6.79383
G1 X110.813 Y134.596 E6.84791
G1 X110.407 Y134.679 E6.88099
G1 X110.019 Y134.772 E6.91284
G1 X109.851 Y134.807 E6.92653
G1 X109.631 Y134.841 E6.9443
G1 X109.457 Y134.861 E6.95828
G1 X108.833 Y134.906 E7.00822
G1 X108.625 Y134.913 E7.02484
G1 X108.421 Y134.909 E7.04112
G1 X108.241 Y134.899 E7.05551
G1 X107.625 Y134.839 E7.10492
G1 X107.466 Y134.816 E7.11774
G1 X107.224 Y134.772 E7.13738
G1 X107.035 Y134.73 E7.15283
G1 X106.431 Y134.566 E7.20279
G1 X106.267 Y134.514 E7.21653
G1 X106.067 Y134.441 E7.23352
G1 X105.893 Y134.369 E7.24855
G1 X105.335 Y134.11 E7.29766
G1 X105.157 Y134.018 E7.31365
G1 X104.99 Y133.923 E7.32899
G1 X104.818 Y133.815 E7.3452
G1 X104.347 Y133.493 E7.39075
G1 X104.178 Y133.368 E7.40752
G1 X103.998 Y133.222 E7.42603
G1 X103.859 Y133.099 E7.44084
G1 X103.409 Y132.664 E7.4908
G1 X103.276 Y132.525 E7.50616
G1 X103.154 Y132.384 E7.52104
G1 X103.027 Y132.226 E7.53722
G1 X102.664 Y131.734 E7.58603
G1 X102.564 Y131.586 E7.60029
G1 X102.463 Y131.421 E7.61573
G1 X102.362 Y131.243 E7.63207
G1 X102.086 Y130.701 E7.68062
G1 X102.011 Y130.534 E7.69523
G1 X101.926 Y130.328 E7.71302
G1 X101.863 Y130.152 E7.72794
G1 X101.681 Y129.569 E7.77669
G1 X101.625 Y129.355 E7.79435
G1 X101.561 Y129.068 E7.81782
G1 X101.373 Y128.425 E7.8713
G1 X101.101 Y127.798 E7.92586
G1 X100.752 Y127.212 E7.9803
G1 X100.332 Y126.673 E8.03485
G1 X99.849 Y126.195 E8.08909
G1 X99.487 Y125.905 E8.12612
G1 X99.182 Y125.679 E8.15642
G1 X98.847 Y125.411 E8.19066
G1 X98.611 Y125.208 E8.21551
G1 X98.282 Y124.906 E8.25116
G1 X97.94 Y124.56 E8.28999
G1 X97.689 Y124.282 E8.31989
G1 X97.476 Y124.03 E8.34623
G1 X97.167 Y123.635 E8.38626
G1 X96.947 Y123.332 E8.41615
G1 X96.732 Y123.007 E8.44726
G1 X96.52 Y122.655 E8.48006
G1 X96.286 Y122.23 E8.51879
G1 X96.134 Y121.924 E8.54606
G1 X95.955 Y121.532 E8.58046
G1 X95.81 Y121.178 E8.611
G1 X95.664 Y120.777 E8.64506
G1 X95.541 Y120.384 E8.67793
G1 X95.43 Y119.986 E8.71092
G1 X95.337 Y119.583 E8.74393
G1 X95.255 Y119.148 E8.77927
G1 X95.203 Y118.802 E8.8072
G1 X95.156 Y118.39 E8.8403
G1 X95.127 Y117.984 E8.87279
G1 X95.113 Y117.579 E8.90514
G1 X95.113 Y117.252 E8.93124
G1 X95.129 Y116.803 E8.9671
G1 X95.163 Y116.395 E8.99978
G1 X95.215 Y115.973 E9.03372
G1 X95.266 Y115.652 E9.05967
G1 X95.357 Y115.183 E9.09781
G1 X95.473 Y114.714 E9.13637
G1 X95.68 Y114.047 E9.19212
G1 X95.836 Y113.622 E9.22826
G1 X96.009 Y113.211 E9.26385
G1 X96.182 Y112.842 E9.29638
G1 X96.326 Y112.56 E9.32166
G1 X96.55 Y112.156 E9.35853
G1 X96.774 Y111.794 E9.39252
G1 X97.005 Y111.453 E9.42539
G1 X97.187 Y111.202 E9.45014
G1 X97.515 Y110.787 E9.49237
G1 X97.774 Y110.487 E9.524
G1 X98.036 Y110.206 E9.55467
G1 X98.276 Y109.966 E9.58177
G1 X98.653 Y109.619 E9.62267
G0 F6000 X99.2 Y109.172
G1 F1125 X99.2 Y125.692 E10.94136
G0 F6000 X97.6 Y124.176
G1 F1125 X97.6 Y110.688 E12.01803
G0 F6000 X96 Y113.232
G1 F1125 X96 Y121.63 E12.6884
G0 F6000 X100.8 Y127.292
G1 F1125 X100.8 Y108.17 E14.2148
G0 F6000 X102.4 Y107.519
G1 F1125 X102.4 Y131.309 E16.11382
G0 F6000 X104 Y133.223
G1 F1125 X104 Y107.155 E18.19468
G0 F6000 X105.6 Y107.041
G1 F1125 X105.6 Y134.233 E20.36526
G0 F6000 X107.2 Y134.766
G1 F1125 X107.2 Y107.041 E22.57839
G0 F6000 X108.8 Y106.895
G1 F1125 X108.8 Y134.908 E24.81451
G0 F6000 X110.4 Y134.681
G1 F1125 X110.4 Y106.254 E27.08368
G0 F6000 X112 Y105.547
G1 F1125 X112 Y134.542 E29.39818
G0 F6000 X113.6 Y134.786
G1 F1125 X113.6 Y105.162 E31.7629
G0 F6000 X115.2 Y105.05
G1 F1125 X115.2 Y134.769 E34.1352
G0 F6000 X116.8 Y134.317
G1 F1125 X116.8 Y105.052 E36.47126
G0 F6000 X118.4 Y105.054
G1 F1125 X118.4 Y133.301 E38.72606
G0 F6000 X120 Y131.345
G1 F1125 X120 Y105.056 E40.82456
G0 F6000 X121.6 Y105.196
G1 F1125 X121.6 Y130.012 E42.80548
G0 F6000 X123.2 Y129.382
G1 F1125 X123.2 Y105.618 E44.70242
G0 F6000 X124.8 Y106.36
G1 F1125 X124.8 Y128.632 E46.48027
G0 F6000 X126.4 Y127.975
G1 F1125 X126.4 Y106.935 E48.15977
G0 F6000 X128 Y107.042
G1 F1125 X128 Y127.824 E49.81868
G0 F6000 X129.6 Y127.82
G1 F1125 X129.6 Y107.045 E51.47703
G0 F6000 X131.2 Y107.187
G1 F1125 X131.2 Y127.681 E53.11295
G0 F6000 X132.8 Y127.283
G1 F1125 X132.8 Y107.584 E54.68541
G0 F6000 X134.4 Y108.274
G1 F1125 X134.4 Y126.591 E56.14755
G0 F6000 X136 Y125.535
G1 F1125 X136 Y109.332 E57.44095
G0 F6000 X137.6 Y110.932
G1 F1125 X137.6 Y123.932 E58.47866
G0 F6000 X139.2 Y121.15
G1 F1125 X139.2 Y113.719 E59.07184
G0 F300 X139.2 Y113.719 Z0.48
G0 F6000 X139.182 Y113.671
;TIME_ELAPSED:47.372789
;LAYER:-5
M140 S60
G1 F1500 E57.87184
;TYPE:SUPPORT
G1 F1500 E59.07184
G1 F1125 X139.045 Y113.335 E59.1008
G1 X138.872 Y112.953 E59.13428
G1 X138.687 Y112.586 E59.16709
G1 X138.472 Y112.198 E59.20249
G1 X138.267 Y111.86 E59.23405
G1 X138.04 Y111.515 E59.26702
G1 X137.821 Y111.214 E59.29673
G1 X137.515 Y110.824 E59.3363
G1 X137.301 Y110.573 E59.36263
G1 X137.018 Y110.261 E59.39625
G1 X136.716 Y109.96 E59.43029
G1 X136.362 Y109.634 E59.4687
G1 X136.146 Y109.45 E59.49135
G1 X135.826 Y109.192 E59.52417
G1 X135.495 Y108.948 E59.55699
G1 X135.072 Y108.666 E59.59757
G1 X134.811 Y108.505 E59.62205
G1 X134.467 Y108.308 E59.65369
G1 X134.062 Y108.1 E59.69004
G1 X133.607 Y107.892 E59.72997
G1 X133.289 Y107.758 E59.75752
G1 X133.17 Y107.714 E59.76765
G1 X139.214 Y113.758 E60.44995
G1 X139.343 Y114.115 E60.48025
G1 X139.459 Y114.481 E60.51089
G1 X139.56 Y114.838 E60.54051
G1 X139.652 Y115.234 E60.57296
G1 X139.735 Y115.657 E60.60737
G1 X139.742 Y115.701 E60.61093
G1 X131.234 Y107.192 E61.57144
G1 X130.971 Y107.15 E61.5927
G1 X130.458 Y107.091 E61.63392
G1 X130.158 Y107.067 E61.65794
G1 X129.686 Y107.044 E61.69567
G1 X129.672 Y107.044 E61.69678
G1 X139.886 Y117.258 E62.84983
G1 X139.886 Y117.284 E62.8519
G1 X139.886 Y117.612 E62.87809
G1 X139.869 Y118.076 E62.91515
G1 X139.836 Y118.47 E62.94671
G1 X139.819 Y118.606 E62.95765
G1 X128.255 Y107.042 E64.2631
G1 X127.398 Y107.04 E64.33151
G1 X126.796 Y106.997 E64.37968
G1 X139.609 Y119.81 E65.82612
G1 X139.527 Y120.143 E65.8535
G1 X139.427 Y120.486 E65.88202
G1 X139.325 Y120.8 E65.90837
G1 X139.288 Y120.903 E65.91711
G1 X124.686 Y106.302 E67.56545
G1 X124.339 Y106.111 E67.59707
G1 X123.832 Y105.865 E67.64205
G1 X123.39 Y105.684 E67.68018
G1 X122.872 Y105.501 E67.72403
G1 X122.395 Y105.363 E67.76367
G1 X122.316 Y105.346 E67.77012
G1 X138.874 Y121.903 E69.63928
G1 X138.821 Y122.014 E69.64909
G1 X138.69 Y122.274 E69.67233
G1 X138.505 Y122.612 E69.70309
G1 X138.377 Y122.821 E69.72266
G1 X120.638 Y105.081 E71.72524
G1 X120.188 Y105.056 E71.76122
G1 X119.196 Y105.054 E71.84041
G1 X137.808 Y123.666 E73.94149
G1 X137.803 Y123.673 E73.94218
G1 X137.477 Y124.085 E73.98411
G1 X137.233 Y124.368 E74.01394
G1 X137.168 Y124.44 E74.02168
G1 X117.78 Y105.052 E76.21037
G1 X116.364 Y105.05 E76.3234
G1 X136.456 Y125.143 E78.59162
G1 X136.326 Y125.263 E78.60574
G1 X136.055 Y125.49 E78.63396
G1 X135.741 Y125.737 E78.66585
G1 X135.679 Y125.78 E78.67187
G1 X114.95 Y105.05 E81.01199
G1 X114.762 Y105.056 E81.02701
G1 X114.264 Y105.083 E81.06682
G1 X114.112 Y105.096 E81.079
G1 X113.741 Y105.139 E81.10881
G1 X113.641 Y105.155 E81.11689
G1 X134.831 Y126.345 E83.50901
G1 X134.707 Y126.421 E83.52061
G1 X134.322 Y126.632 E83.55566
G1 X133.998 Y126.795 E83.58461
G1 X133.906 Y126.835 E83.59262
G1 X112.473 Y105.402 E86.01216
G1 X112.225 Y105.471 E86.03271
G1 X111.705 Y105.648 E86.07656
G1 X111.42 Y105.763 E86.10109
G1 X132.903 Y127.246 E88.52628
G1 X132.863 Y127.261 E88.52969
G1 X132.506 Y127.376 E88.55963
G1 X132.069 Y127.499 E88.59586
G1 X131.804 Y127.562 E88.61761
G1 X110.463 Y106.22 E91.02682
G1 X109.865 Y106.543 E91.08107
G1 X109.856 Y106.524 E91.08275
G1 X109.583 Y106.657 E91.10699
G1 X109.51 Y106.681 E91.11313
G1 X130.588 Y127.76 E93.49265
G1 X130.394 Y127.781 E93.50823
G1 X130.071 Y127.804 E93.53407
G1 X129.444 Y127.823 E93.58415
G1 X129.237 Y127.823 E93.60067
G1 X108.389 Y106.975 E95.95417
G1 X108.262 Y106.999 E95.96449
G1 X107.594 Y107.041 E96.01792
G1 X107.041 Y107.041 E96.06206
G1 X127.823 Y127.823 E98.40811
G1 X127.634 Y127.823 E98.4232
G1 X126.965 Y127.865 E98.47671
G1 X126.533 Y127.948 E98.51182
G1 X105.626 Y107.041 E100.87198
G1 X105.558 Y107.04 E100.87741
G1 X104.916 Y107.06 E100.92869
G1 X104.561 Y107.087 E100.95711
G1 X104.289 Y107.118 E100.97896
G1 X125.465 Y128.293 E103.36943
G1 X124.952 Y128.542 E103.41495
G1 X124.538 Y128.781 E103.45311
G1 X103.086 Y107.329 E105.8748
G1 X102.961 Y107.357 E105.88502
G1 X102.517 Y107.48 E105.9218
G1 X102.142 Y107.6 E105.95323
G1 X101.997 Y107.654 E105.96558
G1 X123.581 Y129.237 E108.40211
G1 X123.506 Y129.27 E108.40865
G1 X122.963 Y129.466 E108.45473
G1 X122.588 Y129.581 E108.48604
G1 X122.531 Y129.602 E108.49089
G1 X100.999 Y108.07 E110.92161
G0 F6000 X100.995 Y108.072
G1 F1125 X100.676 Y108.231 E110.95006
G1 X100.304 Y108.436 E110.98397
G1 X100.084 Y108.569 E111.00449
G1 X121.55 Y130.036 E113.42781
G1 X121.357 Y130.138 E113.44524
G1 X120.8 Y130.533 E113.49975
G1 X120.713 Y130.612 E113.50913
G1 X99.241 Y109.14 E115.93307
G1 X98.942 Y109.375 E115.96343
G1 X98.652 Y109.618 E115.99363
G1 X98.471 Y109.785 E116.01329
G1 X120.014 Y131.328 E118.44525
G1 X119.857 Y131.513 E118.46462
G1 X119.426 Y132.154 E118.52627
G1 X97.765 Y110.493 E120.97156
G1 X97.514 Y110.785 E121.00229
G1 X97.186 Y111.201 E121.04458
G1 X97.133 Y111.275 E121.05185
G1 X118.791 Y132.933 E123.49679
G1 X118.685 Y133.038 E123.5087
G1 X118.415 Y133.286 E123.53796
G1 X118.073 Y133.57 E123.57345
G1 X118.039 Y133.595 E123.57682
G1 X96.568 Y112.124 E126.00065
G1 X96.549 Y112.155 E126.00355
G1 X96.325 Y112.559 E126.04042
G1 X96.182 Y112.841 E126.06566
G1 X96.082 Y113.052 E126.0843
G1 X117.167 Y134.138 E128.46462
G1 X117.084 Y134.184 E128.47219
G1 X116.864 Y134.289 E128.49165
G1 X116.502 Y134.435 E128.52281
G1 X116.337 Y134.493 E128.53677
G1 X116.162 Y134.547 E128.55139
G1 X95.675 Y114.059 E130.86419
G1 X95.472 Y114.713 E130.91886
G1 X95.361 Y115.16 E130.95562
G1 X114.991 Y134.79 E133.17163
G1 X114.718 Y134.819 E133.19354
G1 X114.53 Y134.83 E133.20857
G1 X114.096 Y134.826 E133.24322
G1 X113.958 Y134.818 E133.25425
