;FLAVOR:Marlin
;TIME:3310
;Filament used: 1.59254m
;Layer height: 0.16
;MINX:94.398
;MINY:94.399
;MINZ:0.2
;MAXX:140.599
;MAXY:140.601
;MAXZ:34.44
;Generated with Cura_SteamEngine 4.6.1
M140 S60
M105
M190 S60
M104 S205
M105
M109 S205
M82 ;absolute extrusion mode
; Ender 3 Custom Start G-code
G92 E0 ; Reset Extruder
G28 ; Home all axes
G1 Z2.0 F3000 ; Move Z Axis up little to prevent scratching of Heat Bed
G1 X0.1 Y20 Z0.3 F5000.0 ; Move to start position
G1 X0.1 Y200.0 Z0.3 F1500.0 E15 ; Draw the first line
G1 X0.4 Y200.0 Z0.3 F5000.0 ; Move to side a little
G1 X0.4 Y20 Z0.3 F1500.0 E30 ; Draw the second line
G92 E0 ; Reset Extruder
G1 Z2.0 F3000 ; Move Z Axis up little to prevent scratching of Heat Bed
G1 X5 Y20 Z0.3 F5000.0 ; Move over to prevent blob squish
G92 E0
G92 E0
G1 F1500 E-1.2
;LAYER_COUNT:215
;LAYER:0
M107
G0 F6000 X118.823 Y95.236 Z0.2
;TYPE:SKIRT
G1 F1500 E0
G1 F1200 X119.236 Y95.264 E0.01377
G1 X119.643 Y95.3 E0.02736
G1 X120.532 Y95.404 E0.05713
G1 X120.959 Y95.467 E0.07148
G1 X121.516 Y95.561 E0.09027
G1 X122.232 Y95.703 E0.11455
G1 X123.068 Y95.903 E0.14314
G1 X123.46 Y96.008 E0.15664
G1 X124.02 Y96.171 E0.17604
G1 X124.696 Y96.388 E0.19965
G1 X125.097 Y96.53 E0.2138
G1 X125.647 Y96.738 E0.23336
G1 X126.411 Y97.053 E0.26084
G1 X126.794 Y97.225 E0.27481
G1 X127.158 Y97.397 E0.2882
G1 X128.024 Y97.837 E0.3205
G1 X128.394 Y98.038 E0.33451
G1 X128.743 Y98.237 E0.34787
G1 X129.438 Y98.659 E0.37491
G1 X129.779 Y98.88 E0.38843
G1 X130.152 Y99.132 E0.4034
G1 X130.484 Y99.366 E0.41691
G1 X130.99 Y99.738 E0.4378
G1 X131.324 Y99.995 E0.45182
G1 X131.808 Y100.39 E0.4726
G1 X132.214 Y100.739 E0.4904
G1 X132.525 Y101.017 E0.50428
G1 X132.945 Y101.409 E0.52338
G1 X133.248 Y101.705 E0.53747
G1 X133.717 Y102.19 E0.55991
G1 X134.217 Y102.736 E0.58454
G1 X134.676 Y103.273 E0.60803
G1 X135.183 Y103.91 E0.63511
G1 X135.48 Y104.302 E0.65147
G1 X135.732 Y104.652 E0.66581
G1 X136.184 Y105.32 E0.69264
G1 X136.414 Y105.681 E0.70688
G1 X136.743 Y106.224 E0.72799
G1 X137.061 Y106.783 E0.74938
G1 X137.533 Y107.698 E0.78363
G1 X137.716 Y108.078 E0.79765
G1 X137.887 Y108.453 E0.81136
G1 X138.19 Y109.171 E0.83728
G1 X138.526 Y110.063 E0.86899
G1 X138.667 Y110.469 E0.88328
G1 X138.892 Y111.196 E0.90859
G1 X139.067 Y111.822 E0.93021
G1 X139.232 Y112.476 E0.95265
G1 X139.42 Y113.377 E0.98326
G1 X139.497 Y113.813 E0.99798
G1 X139.576 Y114.323 E1.01515
G1 X139.674 Y115.098 E1.04113
G1 X139.759 Y116.1 E1.07458
G1 X139.791 Y116.707 E1.09479
G1 X139.799 Y117.115 E1.10837
G1 X139.799 Y117.884 E1.13394
G1 X139.791 Y118.292 E1.14752
G1 X139.759 Y118.898 E1.1677
G1 X139.712 Y119.504 E1.18792
G1 X139.673 Y119.905 E1.20132
G1 X139.626 Y120.305 E1.21471
G1 X139.497 Y121.18 E1.24413
G1 X139.427 Y121.577 E1.25754
G1 X139.323 Y122.106 E1.27547
G1 X139.234 Y122.514 E1.28936
G1 X139.067 Y123.181 E1.31223
G1 X138.89 Y123.812 E1.33402
G1 X138.667 Y124.53 E1.35903
G1 X138.532 Y124.921 E1.37279
G1 X138.333 Y125.463 E1.39199
G1 X138.185 Y125.841 E1.40549
G1 X137.882 Y126.556 E1.43132
G1 X137.711 Y126.93 E1.445
G1 X137.249 Y127.863 E1.47963
G1 X136.955 Y128.41 E1.50028
G1 X136.738 Y128.785 E1.51469
G1 X136.41 Y129.325 E1.53571
G1 X136.19 Y129.671 E1.54934
G1 X135.953 Y130.028 E1.5636
G1 X135.477 Y130.702 E1.59104
G1 X135.23 Y131.03 E1.6047
G1 X134.842 Y131.525 E1.62562
G1 X134.402 Y132.049 E1.64837
G1 X133.784 Y132.737 E1.67913
G1 X133.426 Y133.116 E1.69647
G1 X132.963 Y133.573 E1.71811
G1 X132.544 Y133.966 E1.73722
G1 X132.204 Y134.27 E1.75239
G1 X131.798 Y134.618 E1.77017
G1 X131.329 Y135.002 E1.79033
G1 X130.987 Y135.264 E1.80466
G1 X130.482 Y135.635 E1.8255
G1 X130.154 Y135.867 E1.83887
G1 X129.784 Y136.117 E1.85372
G1 X129.08 Y136.563 E1.88144
G1 X128.719 Y136.777 E1.89539
G1 X128.047 Y137.15 E1.92096
G1 X127.502 Y137.433 E1.94138
G1 X126.784 Y137.78 E1.96791
G1 X126.403 Y137.95 E1.98178
G1 X126.005 Y138.118 E1.99615
G1 X125.11 Y138.465 E2.02808
G1 X124.688 Y138.615 E2.04297
G1 X124.02 Y138.829 E2.0663
G1 X123.46 Y138.992 E2.0857
G1 X123.063 Y139.098 E2.09937
G1 X122.603 Y139.212 E2.11513
G1 X121.943 Y139.359 E2.13762
G1 X121.497 Y139.443 E2.15272
G1 X120.939 Y139.536 E2.17153
G1 X120.532 Y139.596 E2.18521
G1 X120.014 Y139.661 E2.20258
G1 X119.239 Y139.736 E2.22848
G1 X118.822 Y139.765 E2.24238
G1 X118.401 Y139.785 E2.2564
G1 X117.428 Y139.801 E2.28876
G1 X116.616 Y139.786 E2.31578
G1 X116.21 Y139.766 E2.3293
G1 X115.775 Y139.736 E2.3438
G1 X114.861 Y139.646 E2.37434
G1 X114.456 Y139.594 E2.38793
G1 X114.001 Y139.527 E2.40322
G1 X113.595 Y139.459 E2.41691
G1 X113.15 Y139.375 E2.43198
G1 X112.335 Y139.197 E2.45972
G1 X111.919 Y139.094 E2.47398
G1 X111.443 Y138.965 E2.49038
G1 X110.636 Y138.721 E2.51842
G1 X110.223 Y138.583 E2.5329
G1 X109.776 Y138.423 E2.54869
G1 X109.037 Y138.136 E2.57506
G1 X108.661 Y137.977 E2.58864
G1 X108.206 Y137.774 E2.60521
G1 X107.368 Y137.369 E2.63617
G1 X106.738 Y137.036 E2.65987
G1 X106.371 Y136.828 E2.6739
G1 X105.844 Y136.514 E2.6943
G1 X105.142 Y136.067 E2.72198
G1 X104.793 Y135.831 E2.736
G1 X104.155 Y135.37 E2.76217
G1 X103.731 Y135.045 E2.77994
G1 X103.416 Y134.794 E2.79334
G1 X103.102 Y134.533 E2.80692
G1 X102.37 Y133.886 E2.83941
G1 X102.075 Y133.61 E2.85285
G1 X101.553 Y133.092 E2.87731
G1 X101.193 Y132.715 E2.89465
G1 X100.916 Y132.413 E2.90828
G1 X100.635 Y132.094 E2.92242
G1 X100.012 Y131.342 E2.9549
G1 X99.738 Y130.99 E2.96973
G1 X99.322 Y130.421 E2.99318
G1 X99.024 Y129.99 E3.0106
G1 X98.803 Y129.656 E3.02392
G1 X98.41 Y129.037 E3.04831
G1 X98.09 Y128.497 E3.06919
G1 X97.882 Y128.12 E3.08351
G1 X97.555 Y127.493 E3.10703
G1 X97.287 Y126.931 E3.12774
G1 X96.945 Y126.152 E3.15604
G1 X96.786 Y125.769 E3.16983
G1 X96.495 Y125.001 E3.19714
G1 X96.354 Y124.591 E3.21156
G1 X96.074 Y123.688 E3.24301
G1 X95.956 Y123.264 E3.25765
G1 X95.817 Y122.721 E3.27629
G1 X95.64 Y121.951 E3.30257
G1 X95.504 Y121.208 E3.32769
G1 X95.384 Y120.38 E3.35552
G1 X95.327 Y119.905 E3.37143
G1 X95.283 Y119.453 E3.38653
G1 X95.221 Y118.524 E3.4175
G1 X95.206 Y118.121 E3.43092
G1 X95.198 Y117.689 E3.44529
G1 X95.207 Y116.851 E3.47316
G1 X95.252 Y115.953 E3.50306
G1 X95.284 Y115.535 E3.51701
G1 X95.33 Y115.068 E3.53262
G1 X95.463 Y114.04 E3.56709
G1 X95.588 Y113.318 E3.59146
G1 X95.715 Y112.713 E3.61202
G1 X95.82 Y112.261 E3.62746
G1 X95.96 Y111.718 E3.64611
G1 X96.074 Y111.312 E3.66013
G1 X96.237 Y110.773 E3.67886
G1 X96.493 Y110.005 E3.70579
G1 X96.637 Y109.611 E3.71974
G1 X96.933 Y108.873 E3.74619
G1 X97.158 Y108.356 E3.76494
G1 X97.516 Y107.596 E3.79288
G1 X97.887 Y106.88 E3.8197
G1 X98.09 Y106.515 E3.8336
G1 X98.382 Y106.015 E3.85285
G1 X98.769 Y105.393 E3.87722
G1 X99.001 Y105.043 E3.89119
G1 X99.332 Y104.566 E3.9105
G1 X99.742 Y104.005 E3.93361
G1 X99.998 Y103.677 E3.94745
G1 X100.367 Y103.222 E3.96693
G1 X100.646 Y102.893 E3.98128
G1 X100.927 Y102.575 E3.99539
G1 X101.553 Y101.908 E4.02582
G1 X102.075 Y101.39 E4.05028
G1 X102.37 Y101.114 E4.06371
G1 X102.804 Y100.724 E4.08312
G1 X103.416 Y100.206 E4.10979
G1 X103.731 Y99.955 E4.12318
G1 X104.155 Y99.63 E4.14095
G1 X104.797 Y99.166 E4.1673
G1 X105.489 Y98.706 E4.19494
G1 X105.867 Y98.471 E4.20974
G1 X106.399 Y98.156 E4.2303
G1 X107.012 Y97.815 E4.25363
G1 X107.847 Y97.394 E4.28474
G1 X108.222 Y97.218 E4.29851
G1 X108.679 Y97.015 E4.31515
G1 X109.429 Y96.708 E4.3421
G1 X110.223 Y96.417 E4.37023
G1 X110.623 Y96.283 E4.38426
G1 X111.075 Y96.142 E4.40001
G1 X111.463 Y96.029 E4.41345
G1 X111.939 Y95.901 E4.42984
G1 X112.764 Y95.705 E4.45804
G1 X113.59 Y95.541 E4.48605
G1 X114.022 Y95.469 E4.50062
G1 X114.477 Y95.403 E4.51591
G1 X115.401 Y95.297 E4.54685
G1 X116.209 Y95.234 E4.5738
G1 X116.616 Y95.214 E4.58735
G1 X117.029 Y95.202 E4.6011
G1 X118.021 Y95.205 E4.63409
G1 X118.823 Y95.236 E4.66079
G0 F6000 X118.842 Y94.836
G1 F1200 X119.271 Y94.865 E4.67509
G1 X119.678 Y94.901 E4.68868
G1 X120.582 Y95.007 E4.71895
G1 X121.026 Y95.073 E4.73388
G1 X121.583 Y95.167 E4.75267
G1 X121.982 Y95.242 E4.76617
G1 X122.705 Y95.401 E4.79079
G1 X123.164 Y95.515 E4.80652
G1 X123.571 Y95.624 E4.82054
G1 X124.131 Y95.787 E4.83993
G1 X124.822 Y96.009 E4.86407
G1 X125.239 Y96.156 E4.87878
G1 X125.789 Y96.364 E4.89834
G1 X126.17 Y96.517 E4.91199
G1 X126.567 Y96.685 E4.92633
G1 X126.965 Y96.863 E4.94083
G1 X127.329 Y97.035 E4.95422
G1 X128.207 Y97.481 E4.98698
G1 X128.593 Y97.691 E5.00159
G1 X128.942 Y97.89 E5.01495
G1 X129.648 Y98.319 E5.04243
G1 X130.003 Y98.549 E5.0565
G1 X130.376 Y98.801 E5.07147
G1 X130.721 Y99.044 E5.08551
G1 X131.227 Y99.416 E5.1064
G1 X131.575 Y99.683 E5.12098
G1 X132.069 Y100.087 E5.14221
G1 X132.475 Y100.436 E5.16002
G1 X132.798 Y100.725 E5.17443
G1 X133.218 Y101.117 E5.19354
G1 X133.533 Y101.424 E5.20817
G1 X134.012 Y101.92 E5.2311
G1 X134.512 Y102.466 E5.25573
G1 X134.989 Y103.024 E5.28014
G1 X135.496 Y103.661 E5.30722
G1 X135.804 Y104.068 E5.3242
G1 X136.056 Y104.418 E5.33854
G1 X136.517 Y105.099 E5.3659
G1 X136.756 Y105.474 E5.38069
G1 X137.085 Y106.017 E5.4018
G1 X137.289 Y106.369 E5.41533
G1 X137.596 Y106.937 E5.43681
G1 X137.89 Y107.517 E5.45844
G1 X138.08 Y107.912 E5.47302
G1 X138.251 Y108.287 E5.48672
G1 X138.56 Y109.019 E5.51315
G1 X138.902 Y109.924 E5.54533
G1 X139.047 Y110.347 E5.5602
G1 X139.278 Y111.088 E5.58602
G1 X139.453 Y111.714 E5.60764
G1 X139.621 Y112.383 E5.63058
G1 X139.71 Y112.788 E5.64437
G1 X139.812 Y113.299 E5.6617
G1 X139.892 Y113.751 E5.67697
G1 X139.971 Y114.261 E5.69413
G1 X140.071 Y115.051 E5.72062
G1 X140.111 Y115.464 E5.73442
G1 X140.158 Y116.069 E5.7546
G1 X140.191 Y116.691 E5.77532
G1 X140.199 Y117.115 E5.78942
G1 X140.199 Y117.884 E5.815
G1 X140.191 Y118.308 E5.8291
G1 X140.158 Y118.929 E5.84979
G1 X140.111 Y119.535 E5.87
G1 X140.071 Y119.952 E5.88394
G1 X140.024 Y120.352 E5.89733
G1 X139.893 Y121.242 E5.92725
G1 X139.82 Y121.654 E5.94117
G1 X139.716 Y122.183 E5.9591
G1 X139.623 Y122.608 E5.97357
G1 X139.452 Y123.289 E5.99693
G1 X139.275 Y123.92 E6.01872
G1 X139.159 Y124.304 E6.03206
G1 X138.908 Y125.058 E6.0585
G1 X138.709 Y125.6 E6.0777
G1 X138.555 Y125.994 E6.09177
G1 X138.246 Y126.723 E6.1181
G1 X138.075 Y127.097 E6.13178
G1 X137.896 Y127.469 E6.14551
G1 X137.606 Y128.043 E6.1669
G1 X137.305 Y128.603 E6.18805
G1 X137.08 Y128.993 E6.20302
G1 X136.752 Y129.533 E6.22404
G1 X136.523 Y129.893 E6.23823
G1 X136.286 Y130.25 E6.25248
G1 X136.054 Y130.585 E6.26603
G1 X135.801 Y130.936 E6.28042
G1 X135.545 Y131.277 E6.29461
G1 X135.157 Y131.772 E6.31553
G1 X134.7 Y132.316 E6.33916
G1 X134.082 Y133.004 E6.36992
G1 X133.709 Y133.399 E6.38798
G1 X133.237 Y133.864 E6.41002
G1 X132.818 Y134.257 E6.42913
G1 X132.464 Y134.574 E6.44493
G1 X132.058 Y134.922 E6.46272
G1 X131.579 Y135.314 E6.48331
G1 X131.224 Y135.587 E6.4982
G1 X130.719 Y135.958 E6.51904
G1 X130.377 Y136.198 E6.53294
G1 X130.007 Y136.448 E6.54779
G1 X129.291 Y136.903 E6.57601
G1 X128.917 Y137.125 E6.59047
G1 X128.231 Y137.505 E6.61656
G1 X127.686 Y137.788 E6.63698
G1 X127.32 Y137.97 E6.65058
G1 X126.955 Y138.142 E6.664
G1 X126.558 Y138.319 E6.67845
G1 X126.16 Y138.487 E6.69282
G1 X125.252 Y138.839 E6.72521
G1 X124.814 Y138.994 E6.74067
G1 X124.131 Y139.213 E6.76452
G1 X123.571 Y139.376 E6.78392
G1 X123.159 Y139.487 E6.79811
G1 X122.699 Y139.601 E6.81387
G1 X122.026 Y139.75 E6.8368
G1 X121.563 Y139.838 E6.85248
G1 X121.005 Y139.931 E6.87129
G1 X120.582 Y139.993 E6.88551
G1 X120.064 Y140.058 E6.90287
G1 X119.274 Y140.135 E6.92927
G1 X118.841 Y140.164 E6.94371
G1 X118.42 Y140.184 E6.95773
G1 X117.432 Y140.201 E6.99059
G1 X117.017 Y140.198 E7.0044
G1 X116.604 Y140.186 E7.01814
G1 X116.183 Y140.165 E7.03216
G1 X115.748 Y140.135 E7.04666
G1 X114.819 Y140.043 E7.07771
G1 X114.398 Y139.99 E7.09182
G1 X113.943 Y139.923 E7.10712
G1 X113.521 Y139.852 E7.12135
G1 X113.076 Y139.768 E7.13641
G1 X112.247 Y139.587 E7.16464
G1 X111.814 Y139.48 E7.17947
G1 X111.338 Y139.351 E7.19587
G1 X110.517 Y139.103 E7.2244
G1 X110.088 Y138.96 E7.23944
G1 X109.641 Y138.8 E7.25523
G1 X108.889 Y138.507 E7.28207
G1 X108.498 Y138.342 E7.29619
G1 X108.043 Y138.139 E7.31276
G1 X107.669 Y137.964 E7.32649
G1 X107.191 Y137.728 E7.34422
G1 X106.548 Y137.388 E7.36842
G1 X106.166 Y137.171 E7.38303
G1 X105.639 Y136.857 E7.40343
G1 X104.925 Y136.403 E7.43157
G1 X104.562 Y136.157 E7.44616
G1 X103.911 Y135.688 E7.47285
G1 X103.487 Y135.363 E7.49061
G1 X103.16 Y135.102 E7.50453
G1 X102.846 Y134.841 E7.51811
G1 X102.537 Y134.573 E7.53171
G1 X102.103 Y134.183 E7.55112
G1 X101.796 Y133.897 E7.56508
G1 X101.264 Y133.368 E7.59003
G1 X100.904 Y132.991 E7.60737
G1 X100.616 Y132.678 E7.62151
G1 X100.335 Y132.359 E7.63565
G1 X100.072 Y132.049 E7.64917
G1 X99.702 Y131.595 E7.66865
G1 X99.417 Y131.229 E7.68408
G1 X98.993 Y130.648 E7.70801
G1 X98.695 Y130.217 E7.72543
G1 X98.465 Y129.871 E7.73925
G1 X98.072 Y129.252 E7.76364
G1 X97.74 Y128.691 E7.78532
G1 X97.532 Y128.314 E7.79964
G1 X97.199 Y127.675 E7.82361
G1 X96.921 Y127.092 E7.84509
G1 X96.579 Y126.313 E7.87339
G1 X96.414 Y125.915 E7.88772
G1 X96.117 Y125.131 E7.9156
G1 X95.976 Y124.721 E7.93002
G1 X95.691 Y123.803 E7.96199
G1 X95.568 Y123.364 E7.97716
G1 X95.429 Y122.821 E7.9958
G1 X95.25 Y122.037 E8.02254
G1 X95.109 Y121.265 E8.04865
G1 X94.989 Y120.437 E8.07647
G1 X94.929 Y119.944 E8.09299
G1 X94.885 Y119.492 E8.1081
G1 X94.853 Y119.08 E8.12184
G1 X94.822 Y118.547 E8.1396
G1 X94.806 Y118.128 E8.15354
G1 X94.798 Y117.696 E8.16792
G1 X94.798 Y117.283 E8.18165
G1 X94.807 Y116.843 E8.19629
G1 X94.852 Y115.93 E8.22669
G1 X94.886 Y115.496 E8.24117
G1 X94.932 Y115.029 E8.25678
G1 X95.067 Y113.986 E8.29176
G1 X95.196 Y113.235 E8.3171
G1 X95.323 Y112.63 E8.33766
G1 X95.433 Y112.162 E8.35365
G1 X95.573 Y111.619 E8.37231
G1 X95.691 Y111.197 E8.38688
G1 X95.854 Y110.658 E8.40561
G1 X96.115 Y109.875 E8.43306
G1 X96.265 Y109.465 E8.44758
G1 X96.567 Y108.713 E8.47453
G1 X96.792 Y108.196 E8.49329
G1 X96.96 Y107.828 E8.50674
G1 X97.155 Y107.423 E8.52169
G1 X97.342 Y107.054 E8.53545
G1 X97.534 Y106.692 E8.54908
G1 X97.745 Y106.313 E8.56351
G1 X98.037 Y105.813 E8.58277
G1 X98.431 Y105.179 E8.60759
G1 X98.672 Y104.815 E8.62211
G1 X99.003 Y104.338 E8.64142
G1 X99.422 Y103.766 E8.66501
G1 X99.687 Y103.425 E8.67937
G1 X100.056 Y102.97 E8.69885
G1 X100.346 Y102.628 E8.71377
G1 X100.627 Y102.31 E8.72788
G1 X100.904 Y102.009 E8.74149
G1 X101.264 Y101.632 E8.75883
G1 X101.796 Y101.103 E8.78378
G1 X102.103 Y100.817 E8.79773
G1 X102.537 Y100.427 E8.81714
G1 X102.846 Y100.159 E8.83075
G1 X103.16 Y99.898 E8.84433
G1 X103.487 Y99.637 E8.85824
G1 X103.911 Y99.312 E8.87601
G1 X104.242 Y99.069 E8.88967
G1 X104.891 Y98.619 E8.91593
G1 X105.271 Y98.371 E8.93103
G1 X105.663 Y98.127 E8.94638
G1 X106.195 Y97.812 E8.96695
G1 X106.821 Y97.464 E8.99077
G1 X107.19 Y97.272 E9.0046
G1 X107.67 Y97.035 E9.02241
G1 X108.06 Y96.853 E9.03672
G1 X108.517 Y96.65 E9.05336
G1 X108.888 Y96.493 E9.06676
G1 X109.281 Y96.336 E9.08083
G1 X110.088 Y96.04 E9.10942
G1 X110.503 Y95.901 E9.12398
G1 X110.955 Y95.76 E9.13972
G1 X111.359 Y95.643 E9.15371
G1 X111.835 Y95.515 E9.17011
G1 X112.675 Y95.315 E9.19883
G1 X113.072 Y95.232 E9.21232
G1 X113.516 Y95.148 E9.22735
G1 X113.964 Y95.073 E9.24246
G1 X114.419 Y95.007 E9.25775
G1 X114.822 Y94.956 E9.27126
G1 X115.359 Y94.899 E9.28922
G1 X116.181 Y94.835 E9.31664
G1 X116.604 Y94.814 E9.33073
G1 X117.017 Y94.802 E9.34447
G1 X117.432 Y94.799 E9.35827
G1 X118.025 Y94.805 E9.378
G1 X118.842 Y94.836 E9.40519
G0 F6000 X118.861 Y94.437
G1 F1200 X119.306 Y94.467 E9.42002
G1 X119.713 Y94.503 E9.43361
G1 X120.114 Y94.546 E9.44703
G1 X120.632 Y94.611 E9.46439
G1 X121.092 Y94.678 E9.47985
G1 X121.649 Y94.772 E9.49864
G1 X122.064 Y94.85 E9.51269
G1 X122.801 Y95.012 E9.53778
G1 X123.26 Y95.126 E9.55351
G1 X123.683 Y95.24 E9.56808
G1 X124.243 Y95.403 E9.58748
G1 X124.628 Y95.523 E9.6009
G1 X125.38 Y95.782 E9.62735
G1 X125.93 Y95.99 E9.64691
G1 X126.326 Y96.149 E9.6611
G1 X126.723 Y96.317 E9.67544
G1 X127.136 Y96.501 E9.69048
G1 X127.5 Y96.673 E9.70387
G1 X128.391 Y97.126 E9.73711
G1 X128.791 Y97.343 E9.75225
G1 X129.14 Y97.542 E9.76561
G1 X129.859 Y97.979 E9.79359
G1 X130.227 Y98.217 E9.80817
G1 X130.6 Y98.469 E9.82314
G1 X130.958 Y98.721 E9.8377
G1 X131.464 Y99.093 E9.85859
G1 X131.825 Y99.37 E9.87373
