;FLAVOR:Marlin
;TIME:2125
;Filament used: 0.660694m
;Layer height: 0.16
;MINX:103.494
;MINY:106.758
;MINZ:0.24
;MAXX:128.997
;MAXY:138.187
;MAXZ:13.96
;Generated with Cura_SteamEngine 4.6.1
M140 S60
M105
M190 S60
M104 S205
M105
M109 S205
M82 ;absolute extrusion mode
; Ender 3 Custom Start G-code
G92 E0 ; Reset Extruder
G28 ; Home all axes
G1 Z2.0 F3000 ; Move Z Axis up little to prevent scratching of Heat Bed
G1 X0.1 Y20 Z0.3 F5000.0 ; Move to start position
G1 X0.1 Y200.0 Z0.3 F1500.0 E15 ; Draw the first line
G1 X0.4 Y200.0 Z0.3 F5000.0 ; Move to side a little
G1 X0.4 Y20 Z0.3 F1500.0 E30 ; Draw the second line
G92 E0 ; Reset Extruder
G1 Z2.0 F3000 ; Move Z Axis up little to prevent scratching of Heat Bed
G1 X5 Y20 Z0.3 F5000.0 ; Move over to prevent blob squish
G92 E0
G92 E0
G1 F1500 E-1.3
;LAYER_COUNT:100
;LAYER:-6
M107
G0 F6000 X111.663 Y108.776 Z0.24
;TYPE:SUPPORT-INTERFACE
G1 F1500 E0
G1 F1125 X111.882 Y108.566 E0.02422
G1 X112.111 Y108.373 E0.04813
G1 X112.348 Y108.197 E0.07169
G1 X112.561 Y108.055 E0.09212
G1 X112.877 Y107.873 E0.12123
G1 X113.056 Y107.784 E0.13719
G1 X113.354 Y107.649 E0.16331
G1 X113.659 Y107.533 E0.18935
G1 X113.943 Y107.445 E0.21309
G1 X114.176 Y107.385 E0.23229
G1 X114.426 Y107.337 E0.25261
G1 X114.558 Y107.32 E0.26324
G1 X114.914 Y107.286 E0.29178
G1 X115.205 Y107.276 E0.31503
G1 X115.524 Y107.286 E0.3405
G1 X115.773 Y107.308 E0.36046
G1 X116.193 Y107.373 E0.39438
G1 X116.303 Y107.398 E0.40339
G1 X116.682 Y107.5 E0.43472
G1 X116.951 Y107.59 E0.45736
G1 X117.355 Y107.756 E0.49222
G1 X117.449 Y107.799 E0.50048
G1 X118.395 Y108.267 E0.58473
G1 X119.345 Y108.762 E0.67024
G1 X120.386 Y109.326 E0.76474
G1 X122.063 Y110.295 E0.91935
G1 X124.508 Y111.835 E1.15001
G1 X125.091 Y112.152 E1.20298
G1 X125.419 Y112.293 E1.23148
G1 X125.551 Y112.344 E1.24278
G1 X125.804 Y112.461 E1.26503
G1 X126.232 Y112.695 E1.30396
G1 X126.552 Y112.901 E1.33434
G1 X126.826 Y113.097 E1.36123
G1 X127.083 Y113.311 E1.38793
G1 X127.459 Y113.674 E1.42965
G1 X127.559 Y113.778 E1.44117
G1 X127.631 Y113.865 E1.45018
G1 X127.863 Y114.164 E1.48039
G1 X128.028 Y114.406 E1.50377
G1 X128.17 Y114.648 E1.52617
G1 X128.305 Y114.917 E1.55019
G1 X128.482 Y115.338 E1.58665
G1 X128.535 Y115.478 E1.5986
G1 X128.57 Y115.591 E1.60804
G1 X128.671 Y115.974 E1.63966
G1 X128.727 Y116.254 E1.66245
G1 X128.77 Y116.577 E1.68846
G1 X128.789 Y116.803 E1.70657
G1 X128.797 Y117.043 E1.72574
G1 X128.793 Y117.169 E1.7358
G1 X128.771 Y117.531 E1.76475
G1 X128.732 Y117.846 E1.79008
G1 X128.677 Y118.128 E1.81302
G1 X128.602 Y118.414 E1.83662
G1 X128.513 Y118.686 E1.85947
G1 X128.391 Y118.995 E1.88598
G1 X128.261 Y119.305 E1.91282
G1 X127.906 Y120.053 E1.97891
G1 X127.916 Y120.058 E1.9798
G1 X127.716 Y120.678 E2.0318
G1 X127.588 Y121.348 E2.08625
G1 X127.546 Y122.03 E2.1408
G1 X127.59 Y122.711 E2.19527
G1 X127.72 Y123.376 E2.24936
G1 X127.819 Y123.713 E2.2774
G1 X127.915 Y124.003 E2.30178
G1 X127.967 Y124.193 E2.31751
G1 X128.012 Y124.391 E2.33371
G1 X128.08 Y124.767 E2.36421
G1 X128.134 Y125.195 E2.39865
G1 X128.149 Y125.409 E2.41577
G1 X128.155 Y125.685 E2.43781
G1 X128.147 Y126.011 E2.46384
G1 X128.115 Y126.444 E2.4985
G1 X128.09 Y126.646 E2.51475
G1 X128.045 Y126.898 E2.53518
G1 X128.004 Y127.092 E2.55101
G1 X127.958 Y127.277 E2.56623
G1 X127.843 Y127.682 E2.59983
G1 X127.783 Y127.863 E2.61505
G1 X127.625 Y128.249 E2.64835
G1 X127.565 Y128.378 E2.6597
G1 X127.378 Y128.752 E2.69308
G1 X127.269 Y128.945 E2.71078
G1 X127.162 Y129.113 E2.72668
G1 X126.981 Y129.375 E2.7521
G1 X126.622 Y129.942 E2.80567
G1 X126.334 Y130.561 E2.86016
G1 X126.139 Y131.165 E2.91083
G1 X126.045 Y131.528 E2.94076
G1 X126 Y131.681 E2.95349
G1 X125.723 Y132.533 E3.025
G1 X125.667 Y132.688 E3.03816
G1 X125.531 Y133.033 E3.06776
G1 X125.401 Y133.307 E3.09197
G1 X125.272 Y133.542 E3.11337
G1 X125.116 Y133.788 E3.13662
G1 X124.935 Y134.037 E3.16119
G1 X124.758 Y134.249 E3.18324
G1 X124.551 Y134.467 E3.20724
G1 X124.34 Y134.665 E3.23033
G1 X124.076 Y134.882 E3.25761
G1 X123.946 Y134.982 E3.27071
G1 X123.1 Y135.593 E3.35401
G1 X122.784 Y135.794 E3.3839
G1 X122.519 Y135.94 E3.40805
G1 X122.263 Y136.06 E3.43062
G1 X121.942 Y136.186 E3.45815
G1 X121.337 Y136.469 E3.51147
G1 X120.43 Y137.03 E3.5966
G1 X120.067 Y137.228 E3.6296
G1 X119.853 Y137.328 E3.64846
G1 X119.478 Y137.477 E3.68067
G1 X118.86 Y137.674 E3.73245
G1 X118.55 Y137.758 E3.75808
G1 X118.335 Y137.807 E3.77569
G1 X117.805 Y137.907 E3.81874
G1 X117.588 Y137.939 E3.83625
G1 X117.398 Y137.959 E3.8515
G1 X117.238 Y137.97 E3.8643
G1 X116.673 Y137.987 E3.90942
G1 X116.514 Y137.986 E3.92211
G1 X116.013 Y137.96 E3.96216
G1 X115.575 Y137.912 E3.99733
G1 X115.368 Y137.88 E4.01405
G1 X115.172 Y137.84 E4.03002
G1 X113.07 Y137.328 E4.20272
G1 X112.708 Y137.215 E4.23299
G1 X112.435 Y137.112 E4.25628
G1 X111.637 Y136.748 E4.32629
G1 X111.634 Y136.756 E4.32698
G1 X111.089 Y136.583 E4.37262
G1 X110.641 Y136.464 E4.40962
G1 X110.238 Y136.333 E4.44345
G1 X109.749 Y136.145 E4.48527
G1 X109.374 Y135.975 E4.51813
G1 X108.919 Y135.741 E4.55897
G1 X108.538 Y135.515 E4.59434
G1 X108.039 Y135.177 E4.64245
G1 X107.639 Y134.865 E4.68294
G1 X107.252 Y134.525 E4.72406
G1 X107.129 Y134.409 E4.73756
G1 X106.89 Y134.167 E4.76471
G1 X106.787 Y134.055 E4.77685
G1 X106.394 Y133.595 E4.82515
G1 X106.109 Y133.212 E4.86326
G1 X105.856 Y132.832 E4.8997
G1 X105.764 Y132.683 E4.91368
G1 X105.613 Y132.42 E4.93788
G1 X105.532 Y132.267 E4.9517
G1 X105.325 Y131.846 E4.98915
G1 X105.252 Y131.681 E5.00355
G1 X105.089 Y131.278 E5.03825
G1 X104.909 Y130.746 E5.08309
G1 X104.804 Y130.36 E5.11502
G1 X104.688 Y129.812 E5.15973
G1 X104.629 Y129.432 E5.19043
G1 X104.579 Y128.957 E5.22855
G1 X104.558 Y128.523 E5.26324
G1 X104.563 Y127.937 E5.31002
G1 X104.577 Y127.695 E5.32937
G1 X104.592 Y127.531 E5.34251
G1 X104.648 Y127.057 E5.38061
G1 X104.719 Y126.646 E5.41391
G1 X104.846 Y126.102 E5.4585
G1 X104.962 Y125.709 E5.49121
G1 X105.127 Y125.24 E5.53089
G1 X105.24 Y124.963 E5.55477
G1 X105.307 Y124.814 E5.56782
G1 X105.542 Y124.332 E5.61062
G1 X105.743 Y123.974 E5.64339
G1 X105.991 Y123.577 E5.68076
G1 X106.242 Y123.223 E5.7154
G1 X106.624 Y122.746 E5.76418
G1 X106.924 Y122.419 E5.7996
G1 X107.28 Y122.067 E5.83957
G1 X107.734 Y121.573 E5.89312
G1 X108.129 Y121.017 E5.94757
G1 X108.451 Y120.414 E6.00213
G1 X108.694 Y119.777 E6.05656
G1 X108.855 Y119.113 E6.11109
G1 X108.928 Y118.469 E6.16283
G1 X108.942 Y118.182 E6.18577
G1 X108.958 Y118.001 E6.20027
G1 X109.009 Y117.571 E6.23484
G1 X109.052 Y117.318 E6.25532
G1 X109.123 Y116.651 E6.30887
G1 X109.105 Y115.95 E6.36484
G1 X109.111 Y115.949 E6.36533
G1 X108.987 Y115.105 E6.43342
G1 X108.963 Y114.817 E6.45649
G1 X108.957 Y114.528 E6.47956
G1 X108.97 Y114.238 E6.50274
G1 X109.001 Y113.944 E6.52634
G1 X109.049 Y113.663 E6.54909
G1 X109.111 Y113.398 E6.57082
G1 X109.204 Y113.092 E6.59635
G1 X109.301 Y112.837 E6.61812
G1 X109.42 Y112.569 E6.64153
G1 X109.559 Y112.306 E6.66528
G1 X109.742 Y112.005 E6.6934
G1 X109.851 Y111.838 E6.70931
G1 X110.03 Y111.542 E6.73693
G1 X110.374 Y110.926 E6.79325
G1 X110.56 Y110.559 E6.82609
G1 X110.835 Y109.952 E6.87928
G1 X110.974 Y109.69 E6.90296
G1 X111.125 Y109.444 E6.926
G1 X111.29 Y109.213 E6.94866
G1 X111.443 Y109.024 E6.96807
G0 F1012.5 X111.486 Y108.97
G0 X111.663 Y108.776
G0 F6000 X112 Y108.466
G1 F1125 X112 Y136.913 E9.23883
G0 F6000 X110.4 Y136.385
G1 F1125 X110.4 Y110.874 E11.27523
G0 F6000 X113.6 Y107.555
G1 F1125 X113.6 Y137.457 E13.66214
G0 F6000 X115.2 Y137.845
G1 F1125 X115.2 Y107.276 E16.10229
G0 F6000 X116.8 Y107.54
G1 F1125 X116.8 Y137.984 E18.53246
G0 F6000 X118.4 Y137.793
G1 F1125 X118.4 Y108.27 E20.88911
G0 F6000 X120 Y109.117
G1 F1125 X120 Y137.26 E23.13561
G0 F6000 X121.6 Y136.346
G1 F1125 X121.6 Y110.028 E25.23643
G0 F6000 X123.2 Y111.012
G1 F1125 X123.2 Y135.521 E27.19284
G0 F6000 X124.8 Y134.199
G1 F1125 X124.8 Y111.994 E28.96534
G0 F6000 X126.4 Y112.804
G1 F1125 X126.4 Y130.42 E30.37152
G0 F6000 X128 Y127.109
G1 F1125 X128 Y124.339 E30.59264
G0 F6000 X128 Y119.855
G1 F1125 X128 Y114.365 E31.03087
G0 F6000 X108.8 Y119.339
G1 F1125 X108.8 Y135.67 E32.33448
G0 F6000 X107.2 Y134.475
G1 F1125 X107.2 Y122.146 E33.31864
G0 F6000 X105.6 Y124.228
G1 F1125 X105.6 Y132.395 E33.97056
G0 F300 X105.6 Y132.395 Z0.48
G0 F6000 X105.698 Y132.568
;TIME_ELAPSED:29.538541
;LAYER:-5
M140 S60
G1 F1500 E32.67056
;TYPE:SUPPORT
G1 F1500 E33.97056
G1 F1125 X108.799 Y135.669 E34.32063
G1 X108.538 Y135.514 E34.34486
G1 X108.038 Y135.176 E34.39304
G1 X107.639 Y134.864 E34.43347
G1 X107.252 Y134.524 E34.47459
G1 X107.129 Y134.408 E34.48809
G1 X106.89 Y134.166 E34.51524
G1 X106.787 Y134.054 E34.52738
G1 X106.393 Y133.594 E34.57573
G1 X106.109 Y133.211 E34.61379
G1 X105.856 Y132.83 E34.6503
G1 X105.764 Y132.682 E34.66421
G0 F6000 X108.799 Y135.669
G1 F1125 X108.918 Y135.74 E34.67527
G1 X109.373 Y135.973 E34.71608
G1 X109.749 Y136.144 E34.74905
G1 X110.238 Y136.332 E34.79087
G1 X110.64 Y136.463 E34.82462
G1 X111.089 Y136.581 E34.86168
G1 X111.143 Y136.598 E34.86619
G1 X104.777 Y130.233 E35.58479
G1 X104.687 Y129.811 E35.61923
G1 X104.629 Y129.431 E35.64992
G1 X104.578 Y128.955 E35.68813
G1 X104.562 Y128.603 E35.71626
G1 X113.354 Y137.395 E36.70877
G1 X115.172 Y137.839 E36.85816
G1 X115.221 Y137.849 E36.86215
G1 X104.624 Y127.251 E38.05849
G1 X104.648 Y127.056 E38.07417
G1 X104.718 Y126.644 E38.10753
G1 X104.845 Y126.101 E38.15205
G1 X104.854 Y126.067 E38.15485
G1 X116.769 Y137.982 E39.49992
G1 X117.238 Y137.969 E39.53737
G1 X117.398 Y137.957 E39.55018
G1 X117.587 Y137.938 E39.56534
G1 X117.804 Y137.906 E39.58285
G1 X118.058 Y137.857 E39.6035
G1 X105.217 Y125.016 E41.0531
G1 X105.24 Y124.962 E41.05779
G1 X105.307 Y124.813 E41.07083
G1 X105.542 Y124.331 E41.11364
G1 X105.687 Y124.071 E41.1374
G1 X119.184 Y137.569 E42.66111
G1 X119.477 Y137.476 E42.68565
G1 X119.853 Y137.327 E42.71794
G1 X120.067 Y137.227 E42.73679
G1 X120.189 Y137.16 E42.7479
G1 X106.246 Y123.216 E44.32197
G1 X106.624 Y122.745 E44.37017
G1 X106.893 Y122.449 E44.4021
G1 X121.073 Y136.63 E46.00292
G1 X121.337 Y136.468 E46.02764
G1 X121.941 Y136.185 E46.08089
G1 X122.014 Y136.156 E46.08716
G1 X107.587 Y121.729 E47.7158
G1 X107.734 Y121.572 E47.73297
G1 X108.128 Y121.016 E47.78737
G1 X108.183 Y120.911 E47.79683
G1 X122.955 Y135.683 E49.46442
G1 X123.1 Y135.591 E49.47813
G1 X123.783 Y135.097 E49.54541
G1 X108.629 Y119.943 E51.25613
G1 X108.694 Y119.776 E51.27043
G1 X108.854 Y119.112 E51.32495
G1 X108.89 Y118.79 E51.35082
G1 X124.558 Y134.458 E53.11956
G1 X124.757 Y134.248 E53.14265
G1 X124.934 Y134.036 E53.16469
G1 X125.115 Y133.787 E53.18927
G1 X125.188 Y133.673 E53.20007
G1 X109.019 Y117.504 E55.02537
G1 X109.052 Y117.316 E55.04061
G1 X109.122 Y116.65 E55.09406
G1 X109.11 Y116.181 E55.13151
G1 X125.652 Y132.723 E56.99892
G1 X125.667 Y132.687 E57.00203
G1 X125.722 Y132.532 E57.01516
G1 X125.999 Y131.68 E57.08667
G1 X126.005 Y131.661 E57.08826
G1 X108.958 Y114.614 E59.01268
G1 X108.956 Y114.527 E59.01962
G1 X108.969 Y114.237 E59.04279
G1 X109 Y113.943 E59.06639
G1 X109.049 Y113.662 E59.08916
G1 X109.11 Y113.397 E59.11087
G1 X109.12 Y113.363 E59.1137
G1 X126.33 Y130.573 E61.05651
G1 X126.334 Y130.56 E61.0576
G1 X126.622 Y129.941 E61.11209
G1 X126.813 Y129.641 E61.14048
G1 X109.53 Y112.358 E63.09154
G1 X109.559 Y112.305 E63.09636
G1 X109.741 Y112.004 E63.12444
G1 X109.85 Y111.837 E63.14036
G1 X110.03 Y111.541 E63.16801
G1 X110.064 Y111.478 E63.17372
G1 X127.363 Y128.777 E65.12659
G1 X127.378 Y128.751 E65.12898
G1 X127.565 Y128.377 E65.16236
G1 X127.624 Y128.248 E65.17368
G1 X127.783 Y127.862 E65.20701
G1 X127.803 Y127.803 E65.21198
G1 X110.558 Y110.558 E67.15874
G1 X110.834 Y109.951 E67.21197
G1 X110.973 Y109.69 E67.23558
G1 X111.022 Y109.608 E67.2432
G1 X128.085 Y126.671 E69.16942
G1 X128.089 Y126.645 E69.17152
G1 X128.114 Y126.444 E69.18769
G1 X128.146 Y126.01 E69.22243
G1 X128.153 Y125.684 E69.24845
G1 X128.148 Y125.408 E69.27049
G1 X128.141 Y125.313 E69.27809
G1 X111.633 Y108.805 E71.14166
G1 X111.662 Y108.775 E71.14499
G1 X111.881 Y108.566 E71.16915
G1 X112.11 Y108.372 E71.19311
G1 X112.347 Y108.196 E71.21668
G1 X112.403 Y108.16 E71.22199
G1 X127.761 Y123.518 E72.95573
G1 X127.719 Y123.375 E72.96763
G1 X127.588 Y122.711 E73.02166
G1 X127.545 Y122.029 E73.07621
G1 X127.553 Y121.896 E73.08684
G1 X113.32 Y107.664 E74.69353
G1 X113.353 Y107.648 E74.69646
G1 X113.658 Y107.533 E74.72248
G1 X113.941 Y107.444 E74.74616
G1 X114.175 Y107.385 E74.76542
G1 X114.411 Y107.34 E74.7846
G1 X127.723 Y120.652 E76.28737
G1 X127.915 Y120.058 E76.3372
G1 X127.905 Y120.053 E76.3381
G1 X128.109 Y119.624 E76.37601
G1 X115.797 Y107.312 E77.7659
G1 X116.192 Y107.373 E77.7978
G1 X116.302 Y107.398 E77.80681
G1 X116.681 Y107.5 E77.83814
G1 X116.95 Y107.589 E77.86076
G1 X117.354 Y107.756 E77.89565
G1 X117.448 Y107.799 E77.9039
G1 X117.943 Y108.044 E77.94799
G1 X128.53 Y118.631 E79.14314
G1 X128.601 Y118.413 E79.16144
G1 X128.676 Y118.127 E79.18505
G1 X128.73 Y117.845 E79.20797
G1 X128.769 Y117.531 E79.23322
G1 X128.774 Y117.461 E79.23882
G1 X120.988 Y109.674 E80.11783
G1 X122.062 Y110.294 E80.21682
G1 X124.507 Y111.834 E80.44748
G1 X124.628 Y111.901 E80.45852
G1 X128.66 Y115.932 E80.91363
G0 F6000 X128.568 Y115.59
G1 F1125 X128.534 Y115.478 E80.92298
G1 X128.481 Y115.337 E80.935
G1 X128.303 Y114.916 E80.97149
G1 X128.169 Y114.648 E80.9954
G1 X128.027 Y114.405 E81.01787
G1 X127.861 Y114.163 E81.0413
G1 X127.63 Y113.864 E81.07146
G1 X127.558 Y113.778 E81.08041
G1 X127.458 Y113.673 E81.09198
G1 X127.082 Y113.311 E81.13365
G1 X126.825 Y113.097 E81.16034
G1 X126.55 Y112.9 E81.18735
G1 X126.231 Y112.694 E81.21766
G1 X125.802 Y112.461 E81.25663
G1 X125.55 Y112.344 E81.27881
G1 X125.418 Y112.292 E81.29013
G1 X125.09 Y112.152 E81.3186
G1 X124.628 Y111.901 E81.36057
G1 F1500 E80.06057
G0 F300 X124.628 Y111.901 Z0.64
G0 F6000 X128.763 Y115.538
;TIME_ELAPSED:62.730617
;LAYER:-4
;TYPE:SUPPORT-INTERFACE
G1 F1500 E81.36057
G1 X128.669 Y115.266 E81.36823
G1 X128.642 Y115.2 E81.37012
G1 X108.798 Y115.2 E81.89813
G1 X108.787 Y115.12 E81.90028
G1 X108.77 Y114.8 E81.90881
G1 X128.47 Y114.8 E82.43299
G1 X128.253 Y114.4 E82.4451
G1 X108.767 Y114.4 E82.96358
G1 X108.797 Y114 E82.97426
G1 X127.98 Y114 E83.48468
G1 X127.789 Y113.741 E83.49324
G1 X127.662 Y113.6 E83.49829
G1 X108.868 Y113.6 E83.99837
G1 X108.923 Y113.328 E84.00575
G1 X108.967 Y113.2 E84.00935
G1 X127.258 Y113.2 E84.49604
G1 X127.223 Y113.167 E84.49732
G1 X126.945 Y112.935 E84.50695
G1 X126.756 Y112.8 E84.51313
G1 X109.103 Y112.8 E84.98285
G1 X109.114 Y112.766 E84.9838
G1 X109.291 Y112.4 E84.99462
G1 X126.106 Y112.4 E85.44203
G1 X125.62 Y112.154 E85.45652
G1 X125.249 Y112 E85.46721
G1 X109.515 Y112 E85.88586
G1 X109.682 Y111.732 E85.89427
G1 X109.758 Y111.6 E85.89832
G1 X124.511 Y111.6 E86.29087
G1 X123.874 Y111.2 E86.31088
G1 X109.988 Y111.2 E86.68036
G1 X110.198 Y110.832 E86.69164
G1 X110.215 Y110.8 E86.6926
G1 X123.238 Y110.8 E87.03912
G1 X122.602 Y110.4 E87.05911
G1 X110.413 Y110.4 E87.38344
G1 X110.555 Y110.084 E87.39265
G1 X110.597 Y110 E87.39515
G1 X121.962 Y110 E87.69755
G1 X121.264 Y109.6 E87.71896
G1 X110.796 Y109.6 E87.99749
G0 F6000 X110.797 Y109.596
G1 F1500 X111.059 Y109.2 E88.01013
G1 X120.565 Y109.2 E88.26307
G1 X120.35 Y109.077 E88.26966
G1 X119.837 Y108.8 E88.28517
G1 X111.381 Y108.8 E88.51017
G1 X111.528 Y108.628 E88.51619
G1 X111.782 Y108.4 E88.52527
G1 X119.086 Y108.4 E88.71961
G1 X118.389 Y108.038 E88.74051
G1 X118.311 Y108 E88.74282
G1 X112.294 Y108 E88.90292
G1 X112.461 Y107.882 E88.90836
G1 X112.961 Y107.608 E88.92353
G1 X112.981 Y107.6 E88.92411
G1 X117.49 Y107.6 E89.04408
G1 X117.424 Y107.568 E89.04603
G1 X116.738 Y107.308 E89.06555
G1 X116.321 Y107.2 E89.07702
G1 X114.1 Y107.2 E89.13611
G1 X114.149 Y107.186 E89.13747
G1 X114.527 Y107.122 E89.14767
G1 X115.204 Y107.076 E89.16573
G1 X115.802 Y107.11 E89.18166
G1 X116.228 Y107.176 E89.19313
G0 F6000 X128.763 Y115.538
G1 F1500 X128.776 Y115.6 E89.19482
G1 X108.854 Y115.6 E89.72491
G1 X108.909 Y115.985 E89.73525
G1 X108.909 Y116 E89.73565
G1 X128.857 Y116 E90.26643
G1 X128.938 Y116.4 E90.27729
G1 X108.917 Y116.4 E90.81001
